Tales_Helper/Assets/Tim's Assets/Horror Dining Room/Demo Scenes/Demo LUT/DiningRoom_lut.CUBE
#Created by: Adobe Photoshop Export Color Lookup Plugin
TITLE "Frame.exr"
#LUT size
LUT_3D_SIZE 8
#data domain
#LUT data points
DOMAIN_MIN 0.000000 0.000000 0.000000
DOMAIN_MAX 0.903226 0.903226 0.903226
0.000000 0.000000 0.003502
0.007911 0.000000 0.003349
0.029298 0.000000 0.001880
0.140546 0.000000 0.001356
0.537395 0.000000 0.000000
1.000000 0.007284 0.000000
1.000000 0.000000 0.000000
1.000000 0.000000 0.000000
0.000000 0.006921 0.004040
0.006488 0.006775 0.003160
0.027892 0.006091 0.001731
0.134169 0.006068 0.001015
0.533278 0.004106 0.000000
1.000000 0.019588 0.000000
1.000000 0.000000 0.000000
1.000000 0.000000 0.000000
0.000000 0.027677 0.004547
0.004900 0.027488 0.003641
0.024414 0.027149 0.000000
0.116532 0.026401 0.000000
0.522871 0.025062 0.000000
1.000000 0.040867 0.000000
1.000000 0.020758 0.000000
1.000000 0.000000 0.000000
0.000000 0.120033 0.006600
0.000000 0.119808 0.006170
0.015196 0.118981 0.004609
0.095931 0.118018 0.002692
0.505189 0.140649 0.001239
1.000000 0.143014 0.000000
1.000000 0.130782 0.000000
1.000000 0.086176 0.000000
0.000000 0.498188 0.065231
0.000000 0.498354 0.064501
0.000000 0.498802 0.062250
0.061676 0.499903 0.032255
0.524568 0.556746 0.036666
1.000000 0.580014 0.031733
1.000000 0.564350 0.000000
1.000000 0.511507 0.000000
0.000000 1.000000 0.169997
0.000000 1.000000 0.169264
0.000000 1.000000 0.168491
0.010306 1.000000 0.153182
0.412814 1.000000 0.085628
1.000000 1.000000 0.100403
1.000000 1.000000 0.075586
1.000000 1.000000 0.000000
0.000000 1.000000 0.255246
0.000000 1.000000 0.254489
0.000000 1.000000 0.253699
0.000000 1.000000 0.237030
0.205818 1.000000 0.168693
1.000000 1.000000 0.198116
1.000000 1.000000 0.219568
1.000000 1.000000 0.130873
0.000000 1.000000 0.552237
0.000000 1.000000 0.551484
0.000000 1.000000 0.550697
0.000000 1.000000 0.533912
0.000000 1.000000 0.452021
0.358339 1.000000 0.477633
1.000000 1.000000 0.504265
1.000000 1.000000 0.569537
0.000000 0.000000 0.021779
0.004014 0.000000 0.022317
0.025754 0.000000 0.021884
0.136987 0.000000 0.022450
0.535797 0.000000 0.010015
1.000000 0.006260 0.013112
1.000000 0.000000 0.000000
1.000000 0.000000 0.000000
0.000000 0.007091 0.022503
0.002934 0.006799 0.022332
0.024506 0.006447 0.021757
0.131001 0.006150 0.020725
0.531146 0.003861 0.009956
1.000000 0.018730 0.013370
1.000000 0.000000 0.000000
1.000000 0.000000 0.000000
0.000000 0.028152 0.022970
0.001790 0.027861 0.022795
0.020733 0.027001 0.017914
0.112899 0.026239 0.016298
0.520433 0.024681 0.010812
1.000000 0.040005 0.013469
1.000000 0.019869 0.000000
1.000000 0.000000 0.000000
0.000000 0.119348 0.025706
0.000000 0.119235 0.024688
0.012192 0.118418 0.022784
0.092514 0.117309 0.019728
0.501273 0.139666 0.017591
1.000000 0.141239 0.016420
1.000000 0.128947 0.000000
1.000000 0.084541 0.000000
0.000000 0.499163 0.087037
0.000000 0.499245 0.086097
0.000000 0.499661 0.083582
0.057168 0.500426 0.051232
0.520711 0.557029 0.052907
1.000000 0.580283 0.047970
1.000000 0.564599 0.016409
1.000000 0.511674 0.000000
0.000000 1.000000 0.193400
0.000000 1.000000 0.192178
0.000000 1.000000 0.191349
0.007013 1.000000 0.177623
0.408438 1.000000 0.104887
1.000000 1.000000 0.120691
1.000000 1.000000 0.096906
1.000000 1.000000 0.001965
0.000000 1.000000 0.279857
0.000000 1.000000 0.278585
0.000000 1.000000 0.277734
0.000000 1.000000 0.262121
0.201889 1.000000 0.189704
1.000000 1.000000 0.217915
1.000000 1.000000 0.238793
1.000000 1.000000 0.149859
0.000000 1.000000 0.576711
0.000000 1.000000 0.575444
0.000000 1.000000 0.574597
0.000000 1.000000 0.559061
0.000000 1.000000 0.473749
0.355734 1.000000 0.495901
1.000000 1.000000 0.522312
1.000000 1.000000 0.587301
0.000000 0.000000 0.051847
0.000000 0.000000 0.052200
0.017207 0.000000 0.055943
0.125010 0.000000 0.067094
0.534315 0.000000 0.039537
1.000000 0.000547 0.047047
1.000000 0.000000 0.016625
1.000000 0.000000 0.000000
0.000000 0.007663 0.052384
0.000000 0.007371 0.052208
0.015728 0.006601 0.054976
0.119017 0.006831 0.062830
0.529437 0.004219 0.039582
1.000000 0.013071 0.047172
1.000000 0.000000 0.017325
1.000000 0.000000 0.000000
0.000000 0.028860 0.053830
0.000000 0.028568 0.053655
0.013986 0.027290 0.053382
0.106874 0.026500 0.051310
0.518527 0.023162 0.040099
1.000000 0.035725 0.047656
1.000000 0.015366 0.017827
1.000000 0.000000 0.000000
0.000000 0.117967 0.062894
0.000000 0.117808 0.061825
0.007123 0.117482 0.056648
0.086134 0.115614 0.049237
0.494173 0.138642 0.045532
1.000000 0.133477 0.050436
1.000000 0.121194 0.021424
1.000000 0.077474 0.000000
0.000000 0.501376 0.127524
0.000000 0.501457 0.126605
0.000000 0.501534 0.123229
0.045336 0.502392 0.096303
0.513416 0.557446 0.079116
1.000000 0.579906 0.076849
1.000000 0.564188 0.047143
1.000000 0.511196 0.000000
0.000000 1.000000 0.237844
0.000000 1.000000 0.237292
0.000000 1.000000 0.233801
0.001502 1.000000 0.222891
0.400225 1.000000 0.143934
1.000000 1.000000 0.155320
1.000000 1.000000 0.130748
1.000000 1.000000 0.034378
0.000000 1.000000 0.324724
0.000000 1.000000 0.324173
0.000000 1.000000 0.320694
0.000000 1.000000 0.308352
0.195484 1.000000 0.226640
1.000000 1.000000 0.249287
1.000000 1.000000 0.270140
1.000000 1.000000 0.180856
0.000000 1.000000 0.621524
0.000000 1.000000 0.620975
0.000000 1.000000 0.617485
0.000000 1.000000 0.605107
0.000000 1.000000 0.511501
0.351957 1.000000 0.525702
1.000000 1.000000 0.551651
1.000000 1.000000 0.615782
0.000000 0.000000 0.200778
0.000000 0.000000 0.201048
0.000000 0.000000 0.204013
0.078223 0.000000 0.217728
0.510408 0.000000 0.216082
1.000000 0.000000 0.168654
1.000000 0.000000 0.137849
1.000000 0.000000 0.037501
0.000000 0.007808 0.195702
0.000000 0.007950 0.196024
0.000000 0.007808 0.198606
0.071554 0.007672 0.211433
0.505987 0.007625 0.212123
1.000000 0.003728 0.168233
1.000000 0.000000 0.137887
1.000000 0.000000 0.037411
0.000000 0.028510 0.180076
0.000000 0.028651 0.180441
0.000000 0.029876 0.183328
0.059837 0.029679 0.195170
0.495192 0.026806 0.203908
1.000000 0.022287 0.167951
1.000000 0.001928 0.138035
1.000000 0.000000 0.037310
0.000000 0.119276 0.181786
0.000000 0.119269 0.181932
0.000000 0.119580 0.183413
0.053275 0.118811 0.184329
0.484912 0.124565 0.177321
1.000000 0.091166 0.167550
1.000000 0.074570 0.137656
1.000000 0.031641 0.036353
0.000000 0.512224 0.284004
0.000000 0.512209 0.283413
0.000000 0.511836 0.281572
0.020784 0.511865 0.267814
0.479182 0.561383 0.232493
1.000000 0.585071 0.193534
1.000000 0.569361 0.164313
1.000000 0.516650 0.065868
0.000000 1.000000 0.388021
0.000000 1.000000 0.386972
0.000000 1.000000 0.386322
0.000000 1.000000 0.379241
0.371411 1.000000 0.293609
1.000000 1.000000 0.307438
1.000000 1.000000 0.282122
1.000000 1.000000 0.182029
0.000000 1.000000 0.476083
0.000000 1.000000 0.475018
0.000000 1.000000 0.474365
0.000000 1.000000 0.466537
0.170637 1.000000 0.376069
1.000000 1.000000 0.395060
1.000000 1.000000 0.415650
1.000000 1.000000 0.326984
0.000000 1.000000 0.769386
0.000000 1.000000 0.768405
0.000000 1.000000 0.767772
0.000000 1.000000 0.760594
0.000000 1.000000 0.659081
0.331465 1.000000 0.665810
1.000000 1.000000 0.686119
1.000000 1.000000 0.748461
0.000000 0.004601 0.689864
0.000000 0.004405 0.689638
0.000000 0.003724 0.690478
0.011705 0.006183 0.697174
0.352041 0.024929 0.745345
1.000000 0.047358 0.851088
1.000000 0.027012 0.821986
1.000000 0.000000 0.721511
0.000000 0.017153 0.688266
0.000000 0.017052 0.688116
0.000000 0.016441 0.687595
0.005186 0.018694 0.694217
0.347469 0.036728 0.746259
1.000000 0.059224 0.854102
1.000000 0.038888 0.824662
1.000000 0.000000 0.723901
0.000000 0.038033 0.685817
0.000000 0.037897 0.685615
0.000000 0.037935 0.685076
0.000000 0.040042 0.691315
0.345833 0.056071 0.750331
1.000000 0.078440 0.858473
1.000000 0.058106 0.828904
1.000000 0.006444 0.727547
0.000000 0.132727 0.694812
0.000000 0.132730 0.694745
0.000000 0.133539 0.695378
0.000000 0.137162 0.705183
0.336476 0.155508 0.772601
1.000000 0.171862 0.876857
1.000000 0.159637 0.846563
1.000000 0.121922 0.742956
0.000000 0.544706 0.802181
0.000000 0.545405 0.802851
0.000000 0.547125 0.803873
0.000000 0.549131 0.805976
0.347508 0.583032 0.839618
1.000000 0.603088 0.871325
1.000000 0.587136 0.839347
1.000000 0.533287 0.731609
0.000000 1.000000 0.927710
0.000000 1.000000 0.928730
0.000000 1.000000 0.928542
0.000000 1.000000 0.927331
0.250041 1.000000 0.920960
1.000000 1.000000 0.898626
1.000000 1.000000 0.873885
1.000000 1.000000 0.767428
0.000000 1.000000 1.000000
0.000000 1.000000 1.000000
0.000000 1.000000 1.000000
0.000000 1.000000 1.000000
0.050969 1.000000 0.991714
0.966692 1.000000 0.971174
1.000000 1.000000 0.988674
1.000000 1.000000 0.892766
0.000000 1.000000 1.000000
0.000000 1.000000 1.000000
0.000000 1.000000 1.000000
0.000000 1.000000 1.000000
0.000000 1.000000 1.000000
0.216518 1.000000 1.000000
1.000000 1.000000 1.000000
1.000000 1.000000 1.000000
0.000000 0.022695 1.000000
0.000000 0.022591 1.000000
0.000000 0.022404 1.000000
0.000000 0.023533 1.000000
0.110393 0.038856 1.000000
0.999037 0.066602 1.000000
1.000000 0.067368 1.000000
1.000000 0.017299 1.000000
0.000000 0.035367 1.000000
0.000000 0.035293 1.000000
0.000000 0.035074 1.000000
0.000000 0.035961 1.000000
0.107911 0.050900 1.000000
0.999457 0.078304 1.000000
1.000000 0.079135 1.000000
1.000000 0.033448 1.000000
0.000000 0.056883 1.000000
0.000000 0.056808 1.000000
0.000000 0.056791 1.000000
0.000000 0.057436 1.000000
0.102943 0.073860 1.000000
1.000000 0.097417 1.000000
1.000000 0.098333 1.000000
1.000000 0.059079 1.000000
0.000000 0.161026 1.000000
0.000000 0.161059 1.000000
0.000000 0.160972 1.000000
0.000000 0.162631 1.000000
0.083569 0.188852 1.000000
1.000000 0.209818 1.000000
1.000000 0.222536 1.000000
1.000000 0.179735 1.000000
0.000000 0.573681 1.000000
0.000000 0.573838 1.000000
0.000000 0.575411 1.000000
0.000000 0.576273 1.000000
0.018461 0.598649 1.000000
1.000000 0.628082 1.000000
1.000000 0.634876 1.000000
1.000000 0.579732 1.000000
0.000000 1.000000 1.000000
0.000000 1.000000 1.000000
0.000000 1.000000 1.000000
0.000000 1.000000 1.000000
0.058410 1.000000 1.000000
0.965170 1.000000 1.000000
1.000000 1.000000 1.000000
1.000000 1.000000 1.000000
0.000000 1.000000 1.000000
0.000000 1.000000 1.000000
0.000000 1.000000 1.000000
0.000000 1.000000 1.000000
0.000000 1.000000 1.000000
0.763793 1.000000 1.000000
1.000000 1.000000 1.000000
1.000000 1.000000 1.000000
0.000000 1.000000 1.000000
0.000000 1.000000 1.000000
0.000000 1.000000 1.000000
0.000000 1.000000 1.000000
0.000000 1.000000 1.000000
0.000000 1.000000 1.000000
1.000000 1.000000 1.000000
1.000000 1.000000 1.000000
0.000000 0.011327 1.000000
0.000000 0.011222 1.000000
0.000000 0.011035 1.000000
0.000000 0.012166 1.000000
0.000000 0.026203 1.000000
0.375383 0.042491 1.000000
1.000000 0.075848 1.000000
1.000000 0.096923 1.000000
0.000000 0.024001 1.000000
0.000000 0.023929 1.000000
0.000000 0.023709 1.000000
0.000000 0.024596 1.000000
0.000000 0.040522 1.000000
0.374974 0.054199 1.000000
1.000000 0.090364 1.000000
1.000000 0.111739 1.000000
0.000000 0.047173 1.000000
0.000000 0.047130 1.000000
0.000000 0.047194 1.000000
0.000000 0.048247 1.000000
0.000000 0.068243 1.000000
0.374759 0.078703 1.000000
1.000000 0.114069 1.000000
1.000000 0.135772 1.000000
0.000000 0.161491 1.000000
0.000000 0.161518 1.000000
0.000000 0.161415 1.000000
0.000000 0.162973 1.000000
0.000000 0.188336 1.000000
0.370178 0.203735 1.000000
1.000000 0.240562 1.000000
1.000000 0.253611 1.000000
0.000000 0.567531 1.000000
0.000000 0.567684 1.000000
0.000000 0.569260 1.000000
0.000000 0.570118 1.000000
0.000000 0.590700 1.000000
0.350069 0.609071 1.000000
1.000000 0.645756 1.000000
1.000000 0.647792 1.000000
0.000000 1.000000 1.000000
0.000000 1.000000 1.000000
0.000000 1.000000 1.000000
0.000000 1.000000 1.000000
0.000000 1.000000 1.000000
0.266380 1.000000 1.000000
1.000000 1.000000 1.000000
1.000000 1.000000 1.000000
0.000000 1.000000 1.000000
0.000000 1.000000 1.000000
0.000000 1.000000 1.000000
0.000000 1.000000 1.000000
0.000000 1.000000 1.000000
0.109517 1.000000 1.000000
1.000000 1.000000 1.000000
1.000000 1.000000 1.000000
0.000000 1.000000 1.000000
0.000000 1.000000 1.000000
0.000000 1.000000 1.000000
0.000000 1.000000 1.000000
0.000000 1.000000 1.000000
0.000000 1.000000 1.000000
1.000000 1.000000 1.000000
1.000000 1.000000 1.000000
0.000000 0.003392 1.000000
0.000000 0.003321 1.000000
0.000000 0.003189 1.000000
0.000000 0.004795 1.000000
0.000000 0.022265 1.000000
0.000000 0.037740 1.000000
0.682658 0.042898 1.000000
1.000000 0.165054 1.000000
0.000000 0.018234 1.000000
0.000000 0.018194 1.000000
0.000000 0.018025 1.000000
0.000000 0.019351 1.000000
0.000000 0.036790 1.000000
0.000000 0.051840 1.000000
0.682469 0.057044 1.000000
1.000000 0.179030 1.000000
0.000000 0.043442 1.000000
0.000000 0.043405 1.000000
0.000000 0.043469 1.000000
0.000000 0.044518 1.000000
0.000000 0.064490 1.000000
0.000000 0.074503 1.000000
0.682752 0.080144 1.000000
1.000000 0.201616 1.000000
0.000000 0.152778 1.000000
0.000000 0.152788 1.000000
0.000000 0.152663 1.000000
0.000000 0.154057 1.000000
0.000000 0.177828 1.000000
0.000000 0.186623 1.000000
0.680555 0.195292 1.000000
1.000000 0.312559 1.000000
0.000000 0.542909 1.000000
0.000000 0.543050 1.000000
0.000000 0.544542 1.000000
0.000000 0.545318 1.000000
0.000000 0.564822 1.000000
0.000000 0.568191 1.000000
0.674139 0.580854 1.000000
1.000000 0.687520 1.000000
0.000000 1.000000 1.000000
0.000000 1.000000 1.000000
0.000000 1.000000 1.000000
0.000000 1.000000 1.000000
0.000000 1.000000 1.000000
0.000000 1.000000 1.000000
0.641421 1.000000 1.000000
1.000000 1.000000 1.000000
0.000000 1.000000 1.000000
0.000000 1.000000 1.000000
0.000000 1.000000 1.000000
0.000000 1.000000 1.000000
0.000000 1.000000 1.000000
0.000000 1.000000 1.000000
0.478795 1.000000 1.000000
1.000000 1.000000 1.000000
0.000000 1.000000 1.000000
0.000000 1.000000 1.000000
0.000000 1.000000 1.000000
0.000000 1.000000 1.000000
0.000000 1.000000 1.000000
0.000000 1.000000 1.000000
0.000000 1.000000 1.000000
1.000000 1.000000 1.000000
