Tales_Helper/Assets/Tim's Assets/Horror Dining Room/Demo Scenes/Demo LUT/DiningRoom_lut.CUBE
#Created by: Adobe Photoshop Export Color Lookup Plugin
TITLE "Frame.exr"
#LUT size
LUT_3D_SIZE 5
#data domain
#LUT data points
DOMAIN_MIN 0.000000 0.000000 0.000000
DOMAIN_MAX 0.903226 0.903226 0.903226
0.000000 0.000000 0.003502
0.021473 0.000000 0.002405
0.306922 0.000000 0.000000
1.000000 0.004264 0.000000
1.000000 0.000000 0.000000
0.000000 0.020078 0.004357
0.017851 0.019691 0.000781
0.277546 0.016898 0.000000
1.000000 0.030022 0.000000
1.000000 0.000000 0.000000
0.000000 0.247619 0.019230
0.000000 0.247232 0.015530
0.222793 0.258345 0.011042
1.000000 0.310773 0.004009
1.000000 0.250644 0.000000
0.000000 1.000000 0.182009
0.000000 1.000000 0.180662
0.124259 1.000000 0.109782
1.000000 1.000000 0.118581
1.000000 1.000000 0.004766
0.000000 1.000000 0.552237
0.000000 1.000000 0.550855
0.000000 1.000000 0.471892
0.751946 1.000000 0.487543
1.000000 1.000000 0.569537
0.000000 0.000000 0.040708
0.012269 0.000000 0.042963
0.298036 0.000000 0.030181
1.000000 0.000000 0.030004
1.000000 0.000000 0.000000
0.000000 0.020891 0.042361
0.009939 0.019786 0.041978
0.269810 0.016928 0.030618
1.000000 0.026407 0.030314
1.000000 0.000000 0.000000
0.000000 0.245519 0.061664
0.000000 0.245647 0.060469
0.213428 0.256564 0.046784
1.000000 0.309912 0.041773
1.000000 0.249871 0.000000
0.000000 1.000000 0.234447
0.000000 1.000000 0.231291
0.113052 1.000000 0.165539
1.000000 1.000000 0.161388
1.000000 1.000000 0.045195
0.000000 1.000000 0.605162
0.000000 1.000000 0.602006
0.000000 1.000000 0.530477
0.745666 1.000000 0.524108
1.000000 1.000000 0.605396
0.000000 0.000000 0.389547
0.000000 0.000000 0.391255
0.174120 0.001522 0.407815
1.000000 0.014208 0.458260
1.000000 0.000000 0.333580
0.000000 0.022859 0.372264
0.000000 0.023149 0.373400
0.147826 0.029236 0.393193
1.000000 0.038132 0.461816
1.000000 0.000000 0.335936
0.000000 0.259720 0.394542
0.000000 0.259039 0.393949
0.125875 0.268262 0.408090
1.000000 0.293375 0.432180
1.000000 0.234320 0.301997
0.000000 1.000000 0.598797
0.000000 1.000000 0.595548
0.032341 1.000000 0.577416
1.000000 1.000000 0.544138
1.000000 1.000000 0.420884
0.000000 1.000000 0.946931
0.000000 1.000000 0.943949
0.000000 1.000000 0.923575
0.684145 1.000000 0.867530
1.000000 1.000000 0.938735
0.000000 0.020990 1.000000
0.000000 0.020767 1.000000
0.000000 0.026004 1.000000
1.000000 0.067488 1.000000
1.000000 0.029694 1.000000
0.000000 0.047286 1.000000
0.000000 0.047202 1.000000
0.000000 0.050806 1.000000
1.000000 0.091197 1.000000
1.000000 0.061603 1.000000
0.000000 0.306711 1.000000
0.000000 0.307530 1.000000
0.000000 0.318449 1.000000
1.000000 0.371886 1.000000
1.000000 0.339006 1.000000
0.000000 1.000000 1.000000
0.000000 1.000000 1.000000
0.000000 1.000000 1.000000
1.000000 1.000000 1.000000
1.000000 1.000000 1.000000
0.000000 1.000000 1.000000
0.000000 1.000000 1.000000
0.000000 1.000000 1.000000
0.309734 1.000000 1.000000
1.000000 1.000000 1.000000
0.000000 0.003392 1.000000
0.000000 0.003241 1.000000
0.000000 0.010050 1.000000
0.000000 0.035555 1.000000
1.000000 0.165054 1.000000
0.000000 0.034190 1.000000
0.000000 0.034186 1.000000
0.000000 0.039103 1.000000
0.000000 0.063870 1.000000
1.000000 0.193341 1.000000
0.000000 0.289582 1.000000
0.000000 0.290301 1.000000
0.000000 0.300230 1.000000
0.000000 0.324338 1.000000
1.000000 0.452141 1.000000
0.000000 1.000000 1.000000
0.000000 1.000000 1.000000
0.000000 1.000000 1.000000
0.000000 1.000000 1.000000
1.000000 1.000000 1.000000
0.000000 1.000000 1.000000
0.000000 1.000000 1.000000
0.000000 1.000000 1.000000
0.000000 1.000000 1.000000
1.000000 1.000000 1.000000
