Tales_Helper/Assets/Tim's Assets/Horror Dining Room/Demo Scenes/Demo LUT/DiningRoom_lut.CUBE
#Created by: Adobe Photoshop Export Color Lookup Plugin
TITLE "Frame.exr"
#LUT size
LUT_3D_SIZE 32
#data domain
DOMAIN_MIN 0.0 0.0 0.0
DOMAIN_MAX 1.0 1.0 1.0
#LUT data points
0.000000 0.000000 0.003502
0.000000 0.000000 0.003525
0.001664 0.000000 0.003568
0.004761 0.000000 0.003584
0.007911 0.000000 0.003349
0.011593 0.000000 0.003074
0.015892 0.000000 0.002780
0.021473 0.000000 0.002405
0.029298 0.000000 0.001880
0.040212 0.000000 0.001268
0.060692 0.000000 0.002077
0.089333 0.000000 0.003071
0.140546 0.000000 0.001356
0.215294 0.000000 0.000000
0.306922 0.000000 0.000000
0.413129 0.000000 0.000000
0.537395 0.000000 0.000000
0.699202 0.000000 0.000000
0.884881 0.011292 0.000000
1.000000 0.009514 0.000000
1.000000 0.007284 0.000000
1.000000 0.004264 0.000000
1.000000 0.000179 0.000000
1.000000 0.000000 0.000000
1.000000 0.000000 0.000000
1.000000 0.000000 0.000000
1.000000 0.000000 0.000000
1.000000 0.000000 0.000000
1.000000 0.000000 0.000000
1.000000 0.000000 0.000000
1.000000 0.000000 0.000000
1.000000 0.000000 0.000000
0.000000 0.000000 0.003636
0.000000 0.000000 0.003614
0.001388 0.000000 0.003654
0.004499 0.000000 0.003683
0.007650 0.000000 0.003449
0.011331 0.000000 0.003174
0.015631 0.000000 0.002879
0.021211 0.000000 0.002505
0.029036 0.000000 0.001980
0.039950 0.000000 0.001368
0.060419 0.000000 0.002180
0.089061 0.000000 0.003175
0.140225 0.000000 0.001461
0.214460 0.000000 0.000000
0.306637 0.000000 0.000000
0.411891 0.000000 0.000000
0.536642 0.000000 0.000000
0.698701 0.000000 0.000000
0.885068 0.014486 0.000000
1.000000 0.012705 0.000000
1.000000 0.010474 0.000000
1.000000 0.007454 0.000000
1.000000 0.003374 0.000000
1.000000 0.000000 0.000000
1.000000 0.000000 0.000000
1.000000 0.000000 0.000000
1.000000 0.000000 0.000000
1.000000 0.000000 0.000000
1.000000 0.000000 0.000000
1.000000 0.000000 0.000000
1.000000 0.000000 0.000000
1.000000 0.000000 0.000000
0.000000 0.000611 0.003777
0.000000 0.000585 0.003735
0.001131 0.000575 0.003718
0.004253 0.000599 0.003760
0.007405 0.000500 0.003525
0.011088 0.000384 0.003252
0.015389 0.000249 0.002958
0.020971 0.000075 0.002584
0.028799 0.000000 0.002061
0.039715 0.000000 0.001450
0.060049 0.000000 0.002247
0.088565 0.000000 0.003219
0.138843 0.000000 0.001440
0.212850 0.000000 0.000000
0.305340 0.000000 0.000000
0.410062 0.000000 0.000000
0.535674 0.000000 0.000000
0.698400 0.000000 0.000000
0.885228 0.017264 0.000000
1.000000 0.015480 0.000000
1.000000 0.013250 0.000000
1.000000 0.010233 0.000000
1.000000 0.006154 0.000000
1.000000 0.000626 0.000000
1.000000 0.000000 0.000000
1.000000 0.000000 0.000000
1.000000 0.000000 0.000000
1.000000 0.000000 0.000000
1.000000 0.000000 0.000000
1.000000 0.000000 0.000000
1.000000 0.000000 0.000000
1.000000 0.000000 0.000000
0.000000 0.003868 0.003977
0.000000 0.003843 0.003934
0.000912 0.003820 0.003898
0.003836 0.003777 0.003745
0.006974 0.003673 0.003514
0.010661 0.003556 0.003252
0.014968 0.003418 0.002964
0.020562 0.003239 0.002590
0.028406 0.002987 0.002064
0.039301 0.002661 0.001385
0.059073 0.002719 0.002118
0.087423 0.002779 0.003108
0.136937 0.003067 0.001419
0.209970 0.002439 0.000000
0.302516 0.000000 0.000000
0.406660 0.000029 0.000000
0.534537 0.001049 0.000000
0.698017 0.002127 0.000000
0.885414 0.020483 0.000000
1.000000 0.018696 0.000000
1.000000 0.016468 0.000000
1.000000 0.013454 0.000000
1.000000 0.009374 0.000000
1.000000 0.003846 0.000000
1.000000 0.000000 0.000000
1.000000 0.000000 0.000000
1.000000 0.000000 0.000000
1.000000 0.000000 0.000000
1.000000 0.000000 0.000000
1.000000 0.000000 0.000000
1.000000 0.000000 0.000000
1.000000 0.000000 0.000000
0.000000 0.006921 0.004040
0.000000 0.006894 0.003997
0.000690 0.006872 0.003960
0.003617 0.006828 0.003798
0.006488 0.006775 0.003160
0.010147 0.006659 0.002919
0.014454 0.006522 0.002631
0.020048 0.006342 0.002256
0.027892 0.006091 0.001731
0.038795 0.005745 0.000965
0.057668 0.005762 0.001412
0.085535 0.005812 0.002422
0.134169 0.006068 0.001015
0.205843 0.005470 0.000000
0.297756 0.002083 0.000000
0.403335 0.003059 0.000000
0.533278 0.004106 0.000000
0.697387 0.006074 0.000000
0.885594 0.023601 0.000000
1.000000 0.021813 0.000000
1.000000 0.019588 0.000000
1.000000 0.016574 0.000000
1.000000 0.012494 0.000000
1.000000 0.006966 0.000000
1.000000 0.000000 0.000000
1.000000 0.000000 0.000000
1.000000 0.000000 0.000000
1.000000 0.000000 0.000000
1.000000 0.000000 0.000000
1.000000 0.000000 0.000000
1.000000 0.000000 0.000000
1.000000 0.000000 0.000000
0.000000 0.010485 0.004117
0.000000 0.010459 0.004074
0.000427 0.010436 0.004037
0.003355 0.010394 0.003882
0.006215 0.010334 0.003243
0.009567 0.010276 0.002515
0.013854 0.010148 0.002242
0.019447 0.009969 0.001867
0.027291 0.009717 0.001342
0.038195 0.009372 0.000575
0.056053 0.009317 0.000586
0.083913 0.009367 0.001596
0.130922 0.009572 0.000550
0.200809 0.009041 0.000000
0.292195 0.006100 0.000000
0.399448 0.006599 0.000000
0.531653 0.007682 0.000000
0.696484 0.010744 0.000000
0.885870 0.027246 0.000000
1.000000 0.025458 0.000000
1.000000 0.023233 0.000000
1.000000 0.020219 0.000000
1.000000 0.016140 0.000000
1.000000 0.010611 0.000000
1.000000 0.003123 0.000000
1.000000 0.000000 0.000000
1.000000 0.000000 0.000000
1.000000 0.000000 0.000000
1.000000 0.000000 0.000000
1.000000 0.000000 0.000000
1.000000 0.000000 0.000000
1.000000 0.000000 0.000000
0.000000 0.014658 0.004221
0.000000 0.014632 0.004179
0.000117 0.014609 0.004141
0.003045 0.014567 0.003986
0.005896 0.014498 0.003339
0.009248 0.014440 0.002612
0.013171 0.014372 0.001761
0.018744 0.014213 0.001412
0.026588 0.013961 0.000886
0.037492 0.013615 0.000120
0.054696 0.013472 0.000000
0.082012 0.013527 0.000630
0.127121 0.013672 0.000005
0.194918 0.013220 0.000000
0.285789 0.010796 0.000000
0.394838 0.010739 0.000000
0.529559 0.011868 0.000000
0.695357 0.016108 0.000000
0.886378 0.031510 0.000000
1.000000 0.029723 0.000000
1.000000 0.027498 0.000000
1.000000 0.024484 0.000000
1.000000 0.020405 0.000000
1.000000 0.014876 0.000000
1.000000 0.007385 0.000000
1.000000 0.000000 0.000000
1.000000 0.000000 0.000000
1.000000 0.000000 0.000000
1.000000 0.000000 0.000000
1.000000 0.000000 0.000000
1.000000 0.000000 0.000000
1.000000 0.000000 0.000000
0.000000 0.020078 0.004357
0.000000 0.020051 0.004314
0.000000 0.020029 0.004277
0.002643 0.019986 0.004121
0.005481 0.019905 0.003465
0.008834 0.019847 0.002738
0.012757 0.019779 0.001886
0.017851 0.019691 0.000781
0.025675 0.019472 0.000295
0.036579 0.019126 0.000000
0.053125 0.018861 0.000000
0.079543 0.018929 0.000000
0.122185 0.018997 0.000000
0.187268 0.018648 0.000000
0.277546 0.016898 0.000000
0.388683 0.016183 0.000000
0.526811 0.017329 0.000000
0.694180 0.022441 0.000000
0.887047 0.037047 0.000000
1.000000 0.035262 0.000000
1.000000 0.033036 0.000000
1.000000 0.030022 0.000000
1.000000 0.025943 0.000000
1.000000 0.020411 0.000000
1.000000 0.012922 0.000000
1.000000 0.002780 0.000000
1.000000 0.000000 0.000000
1.000000 0.000000 0.000000
1.000000 0.000000 0.000000
1.000000 0.000000 0.000000
1.000000 0.000000 0.000000
1.000000 0.000000 0.000000
0.000000 0.027677 0.004547
0.000000 0.027651 0.004504
0.000000 0.027628 0.004467
0.002079 0.027585 0.004311
0.004900 0.027488 0.003641
0.008252 0.027430 0.002914
0.012176 0.027362 0.002062
0.017270 0.027273 0.000957
0.024414 0.027149 0.000000
0.035299 0.026854 0.000000
0.051819 0.026575 0.000000
0.076078 0.026504 0.000000
0.116532 0.026401 0.000000
0.176562 0.026257 0.000000
0.265226 0.025245 0.000000
0.378897 0.024181 0.000000
0.522871 0.025062 0.000000
0.693032 0.031314 0.000000
0.888148 0.044879 0.000000
1.000000 0.043094 0.000000
1.000000 0.040867 0.000000
1.000000 0.037850 0.000000
1.000000 0.033768 0.000000
1.000000 0.028235 0.000000
1.000000 0.020758 0.000000
1.000000 0.010613 0.000000
1.000000 0.000000 0.000000
1.000000 0.000000 0.000000
1.000000 0.000000 0.000000
1.000000 0.000000 0.000000
1.000000 0.000000 0.000000
1.000000 0.000000 0.000000
0.000000 0.038259 0.004866
0.000000 0.038233 0.004823
0.000000 0.038210 0.004786
0.001288 0.038173 0.004604
0.004092 0.038062 0.003875
0.007444 0.038004 0.003148
0.011367 0.037936 0.002297
0.016462 0.037847 0.001191
0.023606 0.037723 0.000000
0.033474 0.037568 0.000000
0.049939 0.037348 0.000000
0.072304 0.037079 0.000000
0.109682 0.036924 0.000000
0.164383 0.037031 0.000000
0.247653 0.037032 0.000000
0.365024 0.035781 0.000000
0.519164 0.036140 0.000000
0.693995 0.043448 0.000000
0.889798 0.055636 0.000890
1.000000 0.053851 0.000000
1.000000 0.051624 0.000000
1.000000 0.048608 0.000000
1.000000 0.044527 0.000000
1.000000 0.039008 0.000000
1.000000 0.031531 0.000000
1.000000 0.021383 0.000000
1.000000 0.010969 0.000000
1.000000 0.000000 0.000000
1.000000 0.000000 0.000000
1.000000 0.000000 0.000000
1.000000 0.000000 0.000000
1.000000 0.000000 0.000000
0.000000 0.056569 0.006379
0.000000 0.056544 0.006336
0.000000 0.056521 0.006299
0.000000 0.056484 0.006111
0.002547 0.056357 0.005242
0.005835 0.056219 0.004272
0.009751 0.056118 0.003203
0.014878 0.056002 0.001881
0.022028 0.055847 0.000324
0.031904 0.055650 0.000000
0.046682 0.055318 0.000000
0.069095 0.055099 0.000000
0.104144 0.055252 0.000000
0.156709 0.056438 0.000000
0.236547 0.058869 0.000000
0.357949 0.060719 0.000000
0.515329 0.057648 0.000000
0.695350 0.060038 0.000000
0.891856 0.071608 0.002207
1.000000 0.069826 0.000701
1.000000 0.067604 0.000000
1.000000 0.064595 0.000000
1.000000 0.060522 0.000000
1.000000 0.055002 0.000000
1.000000 0.047525 0.000000
1.000000 0.039359 0.000000
1.000000 0.031030 0.000000
1.000000 0.019667 0.000000
1.000000 0.004069 0.000000
1.000000 0.000000 0.000000
1.000000 0.000000 0.000000
1.000000 0.000000 0.000000
0.000000 0.081718 0.008391
0.000000 0.081692 0.008348
0.000000 0.081670 0.008310
0.000000 0.081640 0.008229
0.000401 0.081535 0.007422
0.003660 0.081386 0.006405
0.007518 0.081229 0.005278
0.012604 0.081096 0.003890
0.019735 0.080911 0.001943
0.029553 0.080626 0.000000
0.044297 0.080214 0.000000
0.064990 0.079624 0.000000
0.099071 0.080161 0.000106
0.150575 0.082781 0.000637
0.228564 0.088033 0.000000
0.349270 0.093528 0.000000
0.509150 0.091705 0.000000
0.696042 0.091602 0.000394
0.894243 0.097357 0.003070
1.000000 0.095584 0.001493
1.000000 0.093361 0.000000
1.000000 0.090350 0.000000
1.000000 0.086274 0.000000
1.000000 0.082357 0.000000
1.000000 0.077884 0.000000
1.000000 0.071734 0.000000
1.000000 0.063341 0.000000
1.000000 0.051860 0.000000
1.000000 0.035375 0.000000
1.000000 0.012177 0.000000
1.000000 0.000000 0.000000
1.000000 0.000000 0.000000
0.000000 0.120033 0.006600
0.000000 0.120008 0.006557
0.000000 0.119986 0.006519
0.000000 0.119942 0.006437
0.000000 0.119808 0.006170
0.000120 0.119641 0.005864
0.003722 0.119444 0.005505
0.008475 0.119234 0.005110
0.015196 0.118981 0.004609
0.024943 0.118622 0.002713
0.039139 0.118035 0.003189
0.059325 0.117657 0.004019
0.095931 0.118018 0.002692
0.148712 0.120928 0.003880
0.225988 0.125726 0.002528
0.343059 0.135147 0.000000
0.505189 0.140649 0.001239
0.695393 0.144060 0.003860
0.897373 0.145817 0.005305
1.000000 0.144342 0.002819
1.000000 0.143014 0.000000
1.000000 0.141224 0.000000
1.000000 0.138817 0.000000
1.000000 0.135487 0.000000
1.000000 0.130782 0.000000
1.000000 0.124462 0.000000
1.000000 0.115746 0.000000
1.000000 0.103341 0.000000
1.000000 0.086176 0.000000
1.000000 0.062934 0.000000
1.000000 0.029774 0.000000
1.000000 0.000000 0.000000
0.000000 0.172107 0.006949
0.000000 0.172083 0.006906
0.000000 0.172062 0.006869
0.000000 0.172026 0.006824
0.000000 0.171931 0.006774
0.000000 0.171820 0.006715
0.000000 0.171675 0.006651
0.002490 0.171464 0.006573
0.009098 0.171185 0.006518
0.018398 0.170665 0.006202
0.032161 0.169925 0.006379
0.052143 0.169352 0.006891
0.089807 0.169924 0.007727
0.144598 0.174201 0.007321
0.224878 0.179908 0.007034
0.341658 0.190348 0.004629
0.501868 0.204039 0.005275
0.697926 0.214574 0.007499
0.900697 0.218287 0.010149
1.000000 0.216822 0.007305
1.000000 0.215403 0.003681
1.000000 0.213480 0.000000
1.000000 0.210725 0.000000
1.000000 0.206992 0.000000
1.000000 0.201965 0.000000
1.000000 0.195158 0.000000
1.000000 0.185729 0.000000
1.000000 0.172913 0.000000
1.000000 0.155764 0.000000
1.000000 0.131113 0.000000
1.000000 0.097775 0.000000
1.000000 0.049786 0.000000
0.000000 0.247619 0.019230
0.000000 0.247596 0.019187
0.000000 0.247575 0.019149
0.000000 0.247546 0.019014
0.000000 0.247499 0.018304
0.000000 0.247435 0.017430
0.000000 0.247349 0.016543
0.000000 0.247232 0.015530
0.000401 0.246972 0.014131
0.010050 0.246613 0.012401
0.023392 0.246375 0.012192
0.042470 0.245863 0.012178
0.079933 0.246436 0.012522
0.137365 0.250369 0.012935
0.222793 0.258345 0.011042
0.343628 0.271751 0.011685
0.504178 0.286187 0.012036
0.702667 0.304569 0.013820
0.908909 0.315360 0.015387
1.000000 0.314409 0.012536
1.000000 0.312865 0.008914
1.000000 0.310773 0.004009
1.000000 0.307943 0.000000
1.000000 0.304146 0.000000
1.000000 0.299027 0.000000
1.000000 0.292080 0.000000
1.000000 0.282483 0.000000
1.000000 0.268957 0.000000
1.000000 0.250644 0.000000
1.000000 0.225980 0.000000
1.000000 0.190221 0.000000
1.000000 0.141534 0.000000
0.000000 0.352500 0.028039
0.000000 0.352477 0.027996
0.000000 0.352457 0.027959
0.000000 0.352430 0.027655
0.000000 0.352395 0.026355
0.000000 0.352388 0.025132
0.000000 0.352424 0.024711
0.000000 0.352470 0.024165
0.000000 0.352523 0.023399
0.001905 0.352450 0.022187
0.014528 0.352303 0.019933
0.031926 0.351838 0.017992
0.056748 0.352746 0.017863
0.126297 0.357951 0.018473
0.211363 0.369930 0.020458
0.345977 0.385080 0.021637
0.516193 0.402065 0.021213
0.715954 0.421180 0.022745
0.912363 0.432289 0.023975
1.000000 0.431788 0.021128
1.000000 0.430169 0.017525
1.000000 0.427975 0.012644
1.000000 0.425014 0.006014
1.000000 0.421012 0.000000
1.000000 0.415589 0.000000
1.000000 0.408240 0.000000
1.000000 0.398301 0.000000
1.000000 0.384815 0.000000
1.000000 0.365191 0.000000
1.000000 0.338532 0.000000
1.000000 0.302429 0.000000
1.000000 0.250308 0.000000
0.000000 0.498188 0.065231
0.000000 0.498218 0.065113
0.000000 0.498243 0.065010
0.000000 0.498281 0.064850
0.000000 0.498354 0.064501
0.000000 0.498439 0.064099
0.000000 0.498537 0.063629
0.000000 0.498665 0.063019
0.000000 0.498802 0.062250
0.000000 0.499180 0.059526
0.009103 0.499074 0.054704
0.026964 0.499092 0.048878
0.061676 0.499903 0.032255
0.123755 0.506252 0.029988
0.213516 0.519726 0.032375
0.343800 0.536527 0.032504
0.524568 0.556746 0.036666
0.729185 0.572159 0.037338
0.912017 0.581698 0.038240
1.000000 0.581750 0.035350
1.000000 0.580014 0.031733
1.000000 0.577662 0.026833
1.000000 0.574479 0.020200
1.000000 0.570173 0.011213
1.000000 0.564350 0.000000
1.000000 0.556465 0.000000
1.000000 0.545765 0.000000
1.000000 0.531312 0.000000
1.000000 0.511507 0.000000
1.000000 0.483138 0.000000
1.000000 0.443771 0.000000
1.000000 0.390312 0.000000
0.000000 0.683857 0.104288
0.000000 0.684047 0.104263
0.000000 0.684213 0.104241
0.000000 0.684421 0.104187
0.000000 0.684640 0.104087
0.000000 0.684898 0.103924
0.000000 0.685193 0.103747
0.000000 0.685569 0.103821
0.000000 0.686150 0.103756
0.004882 0.687026 0.102961
0.017339 0.688308 0.097657
0.034024 0.690439 0.093495
0.059292 0.692549 0.085759
0.117326 0.696989 0.067252
0.206273 0.709344 0.062401
0.322117 0.727763 0.052814
0.515662 0.746969 0.055144
0.722184 0.764964 0.058777
0.906077 0.768449 0.058911
1.000000 0.769341 0.055961
1.000000 0.767462 0.052346
1.000000 0.764918 0.047448
1.000000 0.761473 0.040820
1.000000 0.756797 0.032040
1.000000 0.750462 0.020156
1.000000 0.741840 0.004059
1.000000 0.730162 0.000000
1.000000 0.714290 0.000000
1.000000 0.692668 0.000000
1.000000 0.663305 0.000000
1.000000 0.620121 0.000000
1.000000 0.559113 0.000000
0.000000 0.887381 0.152820
0.000000 0.887478 0.152603
0.000000 0.887563 0.152415
0.000000 0.887664 0.152208
0.000000 0.887762 0.152064
0.000000 0.887876 0.151856
0.000000 0.888010 0.151614
0.000000 0.888219 0.151366
0.000000 0.888712 0.151257
0.000000 0.889395 0.150939
0.006746 0.890220 0.148338
0.023594 0.891390 0.144947
0.049221 0.894045 0.136224
0.107087 0.897750 0.118487
0.194520 0.908941 0.083087
0.311230 0.930175 0.070226
0.475871 0.955020 0.072524
0.698005 0.975524 0.076885
0.894129 0.985783 0.080860
1.000000 0.989022 0.081104
1.000000 0.987089 0.077646
1.000000 0.984471 0.072962
1.000000 0.980927 0.066621
1.000000 0.975669 0.058026
1.000000 0.968329 0.046382
1.000000 0.958390 0.030616
1.000000 0.944907 0.012000
1.000000 0.926651 0.000000
1.000000 0.901961 0.000000
1.000000 0.868624 0.000000
1.000000 0.823575 0.000000
1.000000 0.762509 0.000000
0.000000 1.000000 0.161129
0.000000 1.000000 0.160913
0.000000 1.000000 0.160726
0.000000 1.000000 0.160524
0.000000 1.000000 0.160396
0.000000 1.000000 0.160216
0.000000 1.000000 0.160005
0.000000 1.000000 0.159783
0.000000 1.000000 0.159622
0.000000 1.000000 0.159248
0.000000 1.000000 0.156797
0.006725 1.000000 0.153712
0.032344 1.000000 0.145107
0.090917 1.000000 0.128338
0.177724 1.000000 0.091063
0.294423 1.000000 0.077694
0.440311 1.000000 0.078097
0.677057 1.000000 0.082456
0.875498 1.000000 0.086442
1.000000 1.000000 0.089758
1.000000 1.000000 0.088796
1.000000 1.000000 0.084109
1.000000 1.000000 0.077766
1.000000 1.000000 0.069170
1.000000 1.000000 0.057652
1.000000 1.000000 0.043953
1.000000 1.000000 0.025406
1.000000 1.000000 0.000295
1.000000 1.000000 0.000000
1.000000 1.000000 0.000000
1.000000 1.000000 0.000000
1.000000 0.962958 0.000000
0.000000 1.000000 0.169997
0.000000 1.000000 0.169782
0.000000 1.000000 0.169594
0.000000 1.000000 0.169392
0.000000 1.000000 0.169264
0.000000 1.000000 0.169084
0.000000 1.000000 0.168873
0.000000 1.000000 0.168651
0.000000 1.000000 0.168491
0.000000 1.000000 0.168078
0.000000 1.000000 0.165357
0.000000 1.000000 0.162367
0.010306 1.000000 0.153182
0.068884 1.000000 0.136873
0.155030 1.000000 0.098516
0.271725 1.000000 0.085403
0.412814 1.000000 0.085628
0.650591 1.000000 0.089974
0.850891 1.000000 0.093937
1.000000 1.000000 0.098300
1.000000 1.000000 0.100403
1.000000 1.000000 0.099019
1.000000 1.000000 0.093171
1.000000 1.000000 0.085703
1.000000 1.000000 0.075586
1.000000 1.000000 0.061888
1.000000 1.000000 0.043340
1.000000 1.000000 0.017642
1.000000 1.000000 0.000000
1.000000 1.000000 0.000000
1.000000 1.000000 0.000000
1.000000 1.000000 0.000000
0.000000 1.000000 0.182009
0.000000 1.000000 0.181793
0.000000 1.000000 0.181605
0.000000 1.000000 0.181404
0.000000 1.000000 0.181276
0.000000 1.000000 0.181095
0.000000 1.000000 0.180885
0.000000 1.000000 0.180662
0.000000 1.000000 0.180502
0.000000 1.000000 0.180089
0.000000 1.000000 0.177369
0.000000 1.000000 0.173906
0.000000 1.000000 0.165438
0.039036 1.000000 0.148346
0.124259 1.000000 0.109782
0.240981 1.000000 0.095776
0.380865 1.000000 0.096341
0.614127 1.000000 0.101549
0.816360 1.000000 0.107046
1.000000 1.000000 0.112561
1.000000 1.000000 0.115118
1.000000 1.000000 0.118581
1.000000 1.000000 0.117463
1.000000 1.000000 0.109995
1.000000 1.000000 0.099878
1.000000 1.000000 0.086180
1.000000 1.000000 0.066941
1.000000 1.000000 0.040550
1.000000 1.000000 0.004766
1.000000 1.000000 0.000000
1.000000 1.000000 0.000000
1.000000 1.000000 0.000000
0.000000 1.000000 0.198942
0.000000 1.000000 0.198719
0.000000 1.000000 0.198525
0.000000 1.000000 0.198317
0.000000 1.000000 0.198186
0.000000 1.000000 0.198000
0.000000 1.000000 0.197783
0.000000 1.000000 0.197556
0.000000 1.000000 0.197395
0.000000 1.000000 0.196973
0.000000 1.000000 0.194134
0.000000 1.000000 0.190521
0.000000 1.000000 0.180866
0.000000 1.000000 0.164685
0.083554 1.000000 0.125662
0.199302 1.000000 0.112542
0.338804 1.000000 0.115017
0.562384 1.000000 0.120954
0.769561 1.000000 0.126982
0.981019 1.000000 0.133612
1.000000 1.000000 0.136322
1.000000 1.000000 0.139786
1.000000 1.000000 0.144451
1.000000 1.000000 0.142474
1.000000 1.000000 0.131840
1.000000 1.000000 0.117443
1.000000 1.000000 0.097950
1.000000 1.000000 0.071486
1.000000 1.000000 0.035470
1.000000 1.000000 0.000000
1.000000 1.000000 0.000000
1.000000 1.000000 0.000000
0.000000 1.000000 0.222754
0.000000 1.000000 0.222531
0.000000 1.000000 0.222336
0.000000 1.000000 0.222127
0.000000 1.000000 0.221996
0.000000 1.000000 0.221810
0.000000 1.000000 0.221592
0.000000 1.000000 0.221364
0.000000 1.000000 0.221204
0.000000 1.000000 0.220781
0.000000 1.000000 0.217939
0.000000 1.000000 0.214326
0.000000 1.000000 0.204602
0.000000 1.000000 0.186424
0.028815 1.000000 0.148062
0.142853 1.000000 0.134052
0.282315 1.000000 0.138525
0.490396 1.000000 0.146253
0.705105 1.000000 0.152742
0.919996 1.000000 0.159203
1.000000 1.000000 0.162979
1.000000 1.000000 0.166234
1.000000 1.000000 0.170641
1.000000 1.000000 0.176612
1.000000 1.000000 0.173845
1.000000 1.000000 0.159335
1.000000 1.000000 0.139688
1.000000 1.000000 0.113088
1.000000 1.000000 0.076462
1.000000 1.000000 0.026545
1.000000 1.000000 0.000000
1.000000 1.000000 0.000000
0.000000 1.000000 0.255246
0.000000 1.000000 0.255024
0.000000 1.000000 0.254830
0.000000 1.000000 0.254622
0.000000 1.000000 0.254489
0.000000 1.000000 0.254304
0.000000 1.000000 0.254086
0.000000 1.000000 0.253858
0.000000 1.000000 0.253699
0.000000 1.000000 0.253276
0.000000 1.000000 0.250427
0.000000 1.000000 0.246798
0.000000 1.000000 0.237030
0.000000 1.000000 0.218351
0.000000 1.000000 0.178206
0.068535 1.000000 0.165069
0.205818 1.000000 0.168693
0.376262 1.000000 0.178121
0.616483 1.000000 0.186147
0.837182 1.000000 0.192606
1.000000 1.000000 0.198116
1.000000 1.000000 0.201338
1.000000 1.000000 0.205698
1.000000 1.000000 0.211607
1.000000 1.000000 0.219568
1.000000 1.000000 0.215327
1.000000 1.000000 0.195240
1.000000 1.000000 0.168046
1.000000 1.000000 0.130873
1.000000 1.000000 0.080425
1.000000 1.000000 0.012241
1.000000 1.000000 0.000000
0.000000 1.000000 0.298940
0.000000 1.000000 0.298717
0.000000 1.000000 0.298524
0.000000 1.000000 0.298315
0.000000 1.000000 0.298184
0.000000 1.000000 0.297999
0.000000 1.000000 0.297783
0.000000 1.000000 0.297555
0.000000 1.000000 0.297397
0.000000 1.000000 0.296975
0.000000 1.000000 0.294145
0.000000 1.000000 0.290545
0.000000 1.000000 0.280856
0.000000 1.000000 0.262252
0.000000 1.000000 0.220284
0.000000 1.000000 0.206345
0.104635 1.000000 0.209876
0.268614 1.000000 0.219116
0.491513 1.000000 0.229380
0.723850 1.000000 0.236997
0.996817 1.000000 0.243838
1.000000 1.000000 0.246919
1.000000 1.000000 0.251077
1.000000 1.000000 0.256710
1.000000 1.000000 0.264342
1.000000 1.000000 0.274675
1.000000 1.000000 0.268610
1.000000 1.000000 0.241115
1.000000 1.000000 0.203907
1.000000 1.000000 0.153584
1.000000 1.000000 0.085526
1.000000 1.000000 0.000000
0.000000 1.000000 0.358555
0.000000 1.000000 0.358330
0.000000 1.000000 0.358133
0.000000 1.000000 0.357923
0.000000 1.000000 0.357790
0.000000 1.000000 0.357603
0.000000 1.000000 0.357383
0.000000 1.000000 0.357155
0.000000 1.000000 0.356994
0.000000 1.000000 0.356571
0.000000 1.000000 0.353687
0.000000 1.000000 0.350020
0.000000 1.000000 0.340165
0.000000 1.000000 0.321437
0.000000 1.000000 0.279361
0.000000 1.000000 0.261979
0.000000 1.000000 0.265244
0.131634 1.000000 0.275552
0.294782 1.000000 0.285350
0.563384 1.000000 0.293509
0.854071 1.000000 0.302777
1.000000 1.000000 0.306498
1.000000 1.000000 0.310666
1.000000 1.000000 0.316324
1.000000 1.000000 0.323991
1.000000 1.000000 0.334373
1.000000 1.000000 0.348429
1.000000 1.000000 0.340230
1.000000 1.000000 0.303115
1.000000 1.000000 0.252098
1.000000 1.000000 0.181695
1.000000 1.000000 0.086198
0.000000 1.000000 0.440297
0.000000 1.000000 0.440069
0.000000 1.000000 0.439875
0.000000 1.000000 0.439665
0.000000 1.000000 0.439535
0.000000 1.000000 0.439349
0.000000 1.000000 0.439132
0.000000 1.000000 0.438903
0.000000 1.000000 0.438744
0.000000 1.000000 0.438318
0.000000 1.000000 0.435463
0.000000 1.000000 0.431826
0.000000 1.000000 0.422036
0.000000 1.000000 0.403314
0.000000 1.000000 0.360876
0.000000 1.000000 0.343214
0.000000 1.000000 0.341123
0.000000 1.000000 0.350826
