Tales_Helper/Assets/Horror Corridor/HorrorCorridor_Demo_Scene/Frame.CUBE
#Created by: Adobe Photoshop Export Color Lookup Plugin
TITLE "Frame.psd"
#LUT size
LUT_3D_SIZE 5
#data domain
#LUT data points
DOMAIN_MIN 0.000000 0.000000 0.000000
DOMAIN_MAX 0.903226 0.903226 0.903226
0.004590 0.003995 0.004409
0.004590 0.003995 0.004409
0.136212 0.006337 0.003436
0.871858 0.138403 0.145664
0.900547 0.998091 1.000000
0.004590 0.003995 0.004409
0.004590 0.003995 0.004409
0.111792 0.017480 0.004184
0.881355 0.182416 0.144854
0.900547 0.998091 1.000000
0.002775 0.142663 0.012137
0.005375 0.141583 0.011248
0.077775 0.139362 0.006793
0.915708 0.421899 0.139255
0.900547 0.998091 1.000000
0.023364 0.850697 0.245813
0.034256 0.854243 0.242129
0.130556 0.888406 0.220998
0.884281 0.949282 0.142386
0.900547 0.998091 1.000000
0.900547 0.998091 1.000000
0.900547 0.998091 1.000000
0.900547 0.998091 1.000000
0.900547 0.998091 1.000000
0.900547 0.998091 1.000000
0.004590 0.003995 0.004409
0.004590 0.003995 0.004409
0.158405 0.004656 0.013970
0.875771 0.137960 0.204075
0.900547 0.998091 1.000000
0.004590 0.003995 0.004409
0.005472 0.005561 0.006719
0.126933 0.019070 0.017850
0.886579 0.189177 0.212860
0.900547 0.998091 1.000000
0.002775 0.143177 0.031596
0.005797 0.146698 0.033438
0.080589 0.145287 0.026048
0.918882 0.432071 0.211445
0.900547 0.998091 1.000000
0.023190 0.859552 0.297186
0.035697 0.864990 0.300767
0.129688 0.900029 0.280996
0.884503 0.956180 0.203028
0.900547 0.998091 1.000000
0.900547 0.998091 1.000000
0.900547 0.998091 1.000000
0.900547 0.998091 1.000000
0.900547 0.998091 1.000000
0.900547 0.998091 1.000000
0.111055 0.002775 0.265541
0.137026 0.002775 0.263898
0.327087 0.002775 0.244687
0.885451 0.121271 0.482518
0.900547 0.998091 1.000000
0.048060 0.011343 0.255364
0.056923 0.013024 0.258940
0.224625 0.013478 0.243959
0.895128 0.177626 0.497052
0.900547 0.998091 1.000000
0.002775 0.153008 0.260984
0.005705 0.157793 0.266535
0.112768 0.188711 0.289346
0.925889 0.472782 0.556546
0.900547 0.998091 1.000000
0.022314 0.900102 0.557573
0.034789 0.906022 0.563107
0.246356 0.952399 0.592714
0.886997 0.987926 0.539612
0.900547 0.998091 1.000000
0.900547 0.998091 1.000000
0.900547 0.998091 1.000000
0.900547 0.998091 1.000000
0.900547 0.998091 1.000000
0.900547 0.998091 1.000000
0.262871 0.109998 1.000000
0.295443 0.106925 1.000000
0.459918 0.090401 1.000000
0.887770 0.075459 1.000000
0.900547 0.998091 1.000000
0.249409 0.163722 1.000000
0.283984 0.169612 1.000000
0.461424 0.159010 1.000000
0.896134 0.140740 1.000000
0.900547 0.998091 1.000000
0.187703 0.432844 1.000000
0.222180 0.439120 1.000000
0.447120 0.474908 1.000000
0.928003 0.457659 1.000000
0.900547 0.998091 1.000000
0.019574 0.944846 1.000000
0.032049 0.949298 1.000000
0.327098 0.972658 1.000000
0.900547 0.998091 1.000000
0.900547 0.998091 1.000000
0.900547 0.998091 1.000000
0.900547 0.998091 1.000000
0.900547 0.998091 1.000000
0.900547 0.998091 1.000000
0.900547 0.998091 1.000000
0.900547 0.998091 1.000000
0.900547 0.998091 1.000000
0.900547 0.998091 1.000000
0.900547 0.998091 1.000000
0.900547 0.998091 1.000000
0.900547 0.998091 1.000000
0.900547 0.998091 1.000000
0.900547 0.998091 1.000000
0.900547 0.998091 1.000000
0.900547 0.998091 1.000000
0.900547 0.998091 1.000000
0.900547 0.998091 1.000000
0.900547 0.998091 1.000000
0.900547 0.998091 1.000000
0.900547 0.998091 1.000000
0.900547 0.998091 1.000000
0.900547 0.998091 1.000000
0.900547 0.998091 1.000000
0.900547 0.998091 1.000000
0.900547 0.998091 1.000000
0.900547 0.998091 1.000000
0.900547 0.998091 1.000000
0.900547 0.998091 1.000000
0.900547 0.998091 1.000000
0.900547 0.998091 1.000000
