Tales_Helper/Assets/Horror Corridor/HorrorCorridor_Demo_Scene/Frame.CUBE
#Created by: Adobe Photoshop Export Color Lookup Plugin
TITLE "Frame.psd"
#LUT size
LUT_3D_SIZE 32
#data domain
DOMAIN_MIN 0.0 0.0 0.0
DOMAIN_MAX 1.0 1.0 1.0
#LUT data points
0.004590 0.003995 0.004409
0.004590 0.003995 0.004409
0.004590 0.003995 0.004409
0.004590 0.003995 0.004409
0.004590 0.003995 0.004409
0.004590 0.003995 0.004409
0.004590 0.003995 0.004409
0.004590 0.003995 0.004409
0.007234 0.004092 0.004427
0.011354 0.004230 0.004451
0.017582 0.004418 0.004484
0.027170 0.004692 0.004502
0.042317 0.005104 0.004485
0.067876 0.005655 0.004337
0.136212 0.006337 0.003436
0.240929 0.005906 0.003500
0.369346 0.009415 0.006828
0.511263 0.014042 0.011835
0.682041 0.023005 0.018191
0.838342 0.043345 0.027488
0.847155 0.066657 0.050223
0.871858 0.138403 0.145664
0.901407 0.257074 0.297302
0.922162 0.416495 0.490637
0.930162 0.619168 0.719010
0.912717 0.855911 0.924345
0.900547 0.998091 1.000000
0.900547 0.998091 1.000000
0.900547 0.998091 1.000000
0.900547 0.998091 1.000000
0.900547 0.998091 1.000000
0.900546 0.998091 1.000000
0.004590 0.003995 0.004409
0.004590 0.003995 0.004409
0.004590 0.003995 0.004409
0.004590 0.003995 0.004409
0.004590 0.003995 0.004409
0.004590 0.003995 0.004409
0.004590 0.003995 0.004409
0.004590 0.003995 0.004409
0.007234 0.004092 0.004427
0.011354 0.004230 0.004451
0.017582 0.004418 0.004484
0.027170 0.004692 0.004502
0.042317 0.005104 0.004485
0.067876 0.005655 0.004337
0.136212 0.006337 0.003436
0.236287 0.008467 0.003569
0.366045 0.011977 0.006828
0.509912 0.016148 0.011835
0.682432 0.025891 0.018191
0.838733 0.046085 0.027488
0.848092 0.071829 0.050010
0.873419 0.145204 0.145540
0.902527 0.264102 0.297519
0.922552 0.423463 0.490861
0.929926 0.625288 0.719125
0.911962 0.860568 0.924337
0.900547 0.998091 1.000000
0.900547 0.998091 1.000000
0.900547 0.998091 1.000000
0.900547 0.998091 1.000000
0.900547 0.998091 1.000000
0.900546 0.998091 1.000000
0.004590 0.003995 0.004409
0.004590 0.003995 0.004409
0.004590 0.003995 0.004409
0.004590 0.003995 0.004409
0.004590 0.003995 0.004409
0.004590 0.003995 0.004409
0.004590 0.003995 0.004409
0.004590 0.003995 0.004409
0.007234 0.004092 0.004427
0.011354 0.004230 0.004451
0.017582 0.004418 0.004484
0.027170 0.004692 0.004502
0.042317 0.005104 0.004485
0.067876 0.005655 0.004337
0.133988 0.007157 0.003504
0.232318 0.010941 0.003569
0.363103 0.014376 0.006828
0.508738 0.018036 0.011835
0.682774 0.028506 0.018191
0.839078 0.048481 0.027488
0.848908 0.076402 0.049825
0.874779 0.151183 0.145432
0.903508 0.270336 0.297700
0.922891 0.429547 0.491057
0.929637 0.630506 0.719219
0.911306 0.864625 0.924331
0.900547 0.998091 1.000000
0.900547 0.998091 1.000000
0.900547 0.998091 1.000000
0.900547 0.998091 1.000000
0.900547 0.998091 1.000000
0.900546 0.998091 1.000000
0.004590 0.003995 0.004409
0.004590 0.003995 0.004409
0.004590 0.003995 0.004409
0.004590 0.003995 0.004409
0.004590 0.003995 0.004409
0.004590 0.003995 0.004409
0.004590 0.003995 0.004409
0.004590 0.003995 0.004409
0.007234 0.004092 0.004427
0.011354 0.004230 0.004451
0.017582 0.004418 0.004484
0.027170 0.004692 0.004502
0.042317 0.005104 0.004485
0.067876 0.005655 0.004337
0.128505 0.009290 0.003674
0.227977 0.013824 0.003569
0.359603 0.017342 0.006828
0.507553 0.020269 0.011835
0.683152 0.031489 0.018191
0.839457 0.051146 0.027488
0.849805 0.081505 0.049622
0.876273 0.157819 0.145314
0.904587 0.277225 0.297899
0.923264 0.436257 0.491271
0.929319 0.636250 0.719322
0.910585 0.869088 0.924324
0.900547 0.998091 1.000000
0.900547 0.998091 1.000000
0.900547 0.998091 1.000000
0.900547 0.998091 1.000000
0.900547 0.998091 1.000000
0.900546 0.998091 1.000000
0.004590 0.003995 0.004409
0.004590 0.003995 0.004409
0.004590 0.003995 0.004409
0.004590 0.003995 0.004409
0.004590 0.003995 0.004409
0.004590 0.003995 0.004409
0.004590 0.003995 0.004409
0.004590 0.003995 0.004409
0.007234 0.004092 0.004427
0.011354 0.004230 0.004451
0.017582 0.004418 0.004484
0.027170 0.004692 0.004502
0.042317 0.005104 0.004485
0.066527 0.006598 0.004388
0.124657 0.010876 0.003796
0.224478 0.015841 0.003589
0.357130 0.019519 0.006828
0.507207 0.022378 0.011835
0.683420 0.033644 0.018191
0.839725 0.053053 0.027488
0.850465 0.085132 0.049433
0.877331 0.162559 0.145231
0.905350 0.282128 0.298039
0.923532 0.441016 0.491418
0.929095 0.640325 0.719396
0.910074 0.872251 0.924319
0.900547 0.998091 1.000000
0.900547 0.998091 1.000000
0.900547 0.998091 1.000000
0.900547 0.998091 1.000000
0.900547 0.998091 1.000000
0.900546 0.998091 1.000000
0.004590 0.003995 0.004409
0.004590 0.003995 0.004409
0.004590 0.003995 0.004409
0.004590 0.003995 0.004409
0.004590 0.003995 0.004409
0.004590 0.003995 0.004409
0.004590 0.003995 0.004409
0.004590 0.003995 0.004409
0.007234 0.004092 0.004427
0.011354 0.004230 0.004451
0.017582 0.004418 0.004484
0.027170 0.004692 0.004502
0.041943 0.005512 0.004506
0.064448 0.008112 0.004465
0.120986 0.012625 0.003906
0.220061 0.018179 0.003629
0.354246 0.022139 0.006828
0.506859 0.024845 0.011835
0.683733 0.036203 0.018191
0.840039 0.055303 0.027488
0.851336 0.089482 0.049187
0.878567 0.168138 0.145133
0.906243 0.287882 0.298204
0.923836 0.446270 0.491566
0.928832 0.645094 0.719481
0.909773 0.875224 0.924169
0.900547 0.998091 1.000000
0.900547 0.998091 1.000000
0.900547 0.998091 1.000000
0.900547 0.998091 1.000000
0.900547 0.998091 1.000000
0.900546 0.998091 1.000000
0.004590 0.003995 0.004409
0.004590 0.003995 0.004409
0.004590 0.003995 0.004409
0.004590 0.003995 0.004409
0.004590 0.003995 0.004409
0.004590 0.003995 0.004409
0.004590 0.003995 0.004409
0.004590 0.003995 0.004409
0.007234 0.004092 0.004427
0.011354 0.004230 0.004451
0.017582 0.004418 0.004484
0.026663 0.005299 0.004533
0.040494 0.007172 0.004587
0.062021 0.009984 0.004557
0.116964 0.014690 0.004026
0.214919 0.021011 0.003676
0.350877 0.025302 0.006828
0.506478 0.027781 0.011835
0.684100 0.039255 0.018191
0.840434 0.057892 0.027488
0.852634 0.094895 0.048894
0.879801 0.174352 0.145012
0.907288 0.294651 0.298397
0.924189 0.452424 0.491738
0.928525 0.650685 0.719582
0.909587 0.878293 0.923913
0.900547 0.998091 1.000000
0.900547 0.998091 1.000000
0.900547 0.998091 1.000000
0.900547 0.998091 1.000000
0.900547 0.998091 1.000000
0.900546 0.998091 1.000000
0.004590 0.003995 0.004409
0.004590 0.003995 0.004409
0.004590 0.003995 0.004409
0.004590 0.003995 0.004409
0.004590 0.003995 0.004409
0.004590 0.003995 0.004409
0.004590 0.003995 0.004409
0.004590 0.003995 0.004409
0.007126 0.004426 0.004445
0.011043 0.005111 0.004499
0.016949 0.006078 0.004573
0.025014 0.007456 0.004639
0.038630 0.009473 0.004693
0.058904 0.012546 0.004677
0.111792 0.017480 0.004184
0.208285 0.024828 0.003738
0.347806 0.029274 0.006828
0.505984 0.031707 0.011835
0.684576 0.043304 0.018191
0.841016 0.061118 0.027488
0.854320 0.102036 0.048514
0.881355 0.182416 0.144854
0.908645 0.303497 0.298647
0.924645 0.460449 0.491963
0.927983 0.657933 0.719697
0.909345 0.882283 0.923580
0.900547 0.998091 1.000000
0.900547 0.998091 1.000000
0.900547 0.998091 1.000000
0.900547 0.998091 1.000000
0.900547 0.998091 1.000000
0.900546 0.998091 1.000000
0.004707 0.007870 0.004684
0.004707 0.007870 0.004684
0.004707 0.007870 0.004684
0.004707 0.007870 0.004684
0.004707 0.007870 0.004684
0.004707 0.007870 0.004684
0.004707 0.007870 0.004684
0.004896 0.007832 0.004678
0.006515 0.007517 0.004629
0.010066 0.008158 0.004655
0.015863 0.009233 0.004729
0.023879 0.010744 0.004799
0.036052 0.012936 0.004841
0.054732 0.016346 0.004845
0.104634 0.021577 0.004407
0.199347 0.030366 0.003831
0.344182 0.034307 0.006828
0.505292 0.037413 0.011835
0.685320 0.048955 0.018191
0.841832 0.065713 0.027488
0.856685 0.112254 0.047982
0.883536 0.193869 0.144631
0.910391 0.315605 0.298883
0.925186 0.471836 0.492299
0.926984 0.668071 0.719834
0.909006 0.887884 0.923114
0.900547 0.998091 1.000000
0.900547 0.998091 1.000000
0.900547 0.998091 1.000000
0.900547 0.998091 1.000000
0.900547 0.998091 1.000000
0.900546 0.998091 1.000000
0.004872 0.014163 0.005074
0.004872 0.014163 0.005074
0.004872 0.014163 0.005074
0.004872 0.014163 0.005074
0.004872 0.014163 0.005074
0.004872 0.014163 0.005074
0.004872 0.014163 0.005074
0.005368 0.014048 0.005058
0.007020 0.013685 0.005009
0.009451 0.013189 0.004940
0.014398 0.014029 0.004946
0.022339 0.015687 0.005021
0.032811 0.018083 0.005050
0.050966 0.021743 0.005054
0.096336 0.027328 0.004679
0.194908 0.036482 0.003933
0.339067 0.041447 0.006828
0.504272 0.045368 0.011835
0.686414 0.056363 0.018191
0.843638 0.075319 0.027272
0.860045 0.126601 0.047262
0.886552 0.209872 0.144273
0.912041 0.331099 0.299127
0.925937 0.487593 0.492754
0.925520 0.682038 0.720015
0.908540 0.895601 0.922473
0.900547 0.998091 1.000000
0.900547 0.998091 1.000000
0.900547 0.998091 1.000000
0.900547 0.998091 1.000000
0.900547 0.998091 1.000000
0.900546 0.998091 1.000000
0.005055 0.023711 0.005573
0.005055 0.023711 0.005573
0.005055 0.023711 0.005573
0.005055 0.023711 0.005573
0.005055 0.023711 0.005573
0.005055 0.023711 0.005573
0.005055 0.023711 0.005573
0.005997 0.023502 0.005549
0.007695 0.023127 0.005506
0.010184 0.022614 0.005446
0.013812 0.021921 0.005365
0.020531 0.022915 0.005295
0.031157 0.025354 0.005286
0.048809 0.029030 0.005227
0.093516 0.034451 0.004824
0.188263 0.044511 0.004113
0.333252 0.051147 0.006828
0.503242 0.056061 0.011835
0.687970 0.066207 0.018191
0.847165 0.092201 0.026765
0.865032 0.147075 0.045940
0.890953 0.232724 0.143744
0.914287 0.352427 0.299451
0.927035 0.509128 0.493292
0.923530 0.701132 0.720259
0.907907 0.906114 0.921601
0.900547 0.998091 1.000000
0.900547 0.998091 1.000000
0.900547 0.998091 1.000000
0.900547 0.998091 1.000000
0.900547 0.998091 1.000000
0.900546 0.998091 1.000000
0.004869 0.035784 0.005828
0.004869 0.035784 0.005828
0.004869 0.035784 0.005828
0.004869 0.035784 0.005828
0.004869 0.035784 0.005828
0.004869 0.035784 0.005828
0.005212 0.035701 0.005819
0.006404 0.035422 0.005790
0.008167 0.035032 0.005750
0.010748 0.034498 0.005695
0.014478 0.033760 0.005617
0.019789 0.032905 0.005521
0.029926 0.035395 0.005494
0.047151 0.039313 0.005430
0.090265 0.044994 0.005019
0.179803 0.055832 0.004431
0.327246 0.064262 0.007115
0.502700 0.069860 0.011835
0.690947 0.083748 0.017909
0.853458 0.117388 0.026090
0.871497 0.174922 0.044444
0.896539 0.262355 0.142926
0.916794 0.380380 0.299736
0.926874 0.536326 0.493797
0.920861 0.726724 0.720523
0.907058 0.919931 0.920460
0.900547 0.998091 1.000000
0.900547 0.998091 1.000000
0.900547 0.998091 1.000000
0.900547 0.998091 1.000000
0.900547 0.998091 1.000000
0.900546 0.998091 1.000000
0.004196 0.054730 0.006617
0.004196 0.054730 0.006617
0.004196 0.054730 0.006617
0.004196 0.054730 0.006617
0.004196 0.054730 0.006617
0.004432 0.054656 0.006589
0.005378 0.054367 0.006482
0.006668 0.053992 0.006343
0.008582 0.053466 0.006150
0.011357 0.052765 0.005921
0.015162 0.051948 0.005849
0.020605 0.051143 0.005770
0.028603 0.050685 0.005699
0.045350 0.054878 0.005573
0.087259 0.061046 0.005102
0.172676 0.072112 0.004489
0.320557 0.083049 0.007285
0.502938 0.095137 0.011489
0.698480 0.117499 0.017083
0.862480 0.153754 0.025175
0.879792 0.213687 0.042355
0.903702 0.302672 0.141970
0.919980 0.419016 0.300122
0.924687 0.572143 0.494249
0.917228 0.761895 0.720853
0.905901 0.938775 0.918912
0.900547 0.998091 1.000000
0.900547 0.998091 1.000000
0.900547 0.998091 1.000000
0.900547 0.998091 1.000000
0.900547 0.998091 1.000000
0.900546 0.998091 1.000000
0.003045 0.085305 0.008433
0.003045 0.085305 0.008433
0.003045 0.085305 0.008433
0.003045 0.085305 0.008433
0.003462 0.085176 0.008360
0.004180 0.084964 0.008240
0.005071 0.084712 0.008097
0.006286 0.084387 0.007914
0.008089 0.083930 0.007658
0.010733 0.083304 0.007310
0.014758 0.082213 0.006920
0.020426 0.081223 0.006576
0.028586 0.080341 0.006284
0.042564 0.079954 0.005979
0.083896 0.088088 0.005273
0.164725 0.101811 0.004263
0.313144 0.121290 0.007114
0.506377 0.141145 0.010954
0.704595 0.167752 0.016484
0.874431 0.205060 0.024510
0.891019 0.267747 0.039249
0.909894 0.352614 0.140574
0.922696 0.470845 0.300595
0.920432 0.619264 0.494539
0.911977 0.806368 0.720834
0.904333 0.964475 0.916785
0.900547 0.998091 1.000000
0.900547 0.998091 1.000000
0.900547 0.998091 1.000000
0.900547 0.998091 1.000000
0.900547 0.998091 1.000000
0.900546 0.998091 1.000000
0.002775 0.142663 0.012137
0.002775 0.142663 0.012137
0.002963 0.142579 0.012067
0.003440 0.142370 0.011894
0.003788 0.142222 0.011772
0.004205 0.142048 0.011629
0.004706 0.141846 0.011463
0.005375 0.141583 0.011248
0.006349 0.141215 0.010948
0.007985 0.140627 0.010572
0.010409 0.139807 0.010074
0.014340 0.138832 0.009538
0.021328 0.137698 0.009007
0.037975 0.137284 0.008213
0.077775 0.139362 0.006793
0.156047 0.155834 0.005208
0.306095 0.182140 0.006961
0.504805 0.208916 0.010954
0.711148 0.239354 0.016484
0.890047 0.277109 0.023701
0.902159 0.335659 0.036732
0.915708 0.421899 0.139255
0.920191 0.537229 0.301173
0.914881 0.681640 0.494996
0.903881 0.855654 0.719589
0.902210 0.999597 0.913860
0.900547 0.998091 1.000000
0.900547 0.998091 1.000000
0.900547 0.998091 1.000000
0.900547 0.998091 1.000000
0.900547 0.998091 1.000000
0.900546 0.998091 1.000000
0.002987 0.232018 0.019294
0.003433 0.231830 0.019094
0.003882 0.231679 0.018912
0.004390 0.231513 0.018713
0.004758 0.231396 0.018572
0.005198 0.231258 0.018407
0.005723 0.231098 0.018215
0.006424 0.230891 0.017970
0.007437 0.230601 0.017627
0.008886 0.230203 0.017159
0.010949 0.229674 0.016532
0.013862 0.229002 0.015955
0.018081 0.228049 0.015187
0.027155 0.228452 0.013642
0.065614 0.231631 0.010993
0.142878 0.238571 0.006486
0.291753 0.269347 0.006107
0.494105 0.300890 0.010073
0.716107 0.331061 0.014789
0.902845 0.367050 0.021563
0.909148 0.427486 0.033735
0.915195 0.511430 0.139526
0.914261 0.622110 0.302840
0.907008 0.765722 0.495710
0.899022 0.907054 0.714669
0.902184 1.000000 0.913825
0.900547 0.998091 1.000000
0.900547 0.998091 1.000000
0.900547 0.998091 1.000000
0.900547 0.998091 1.000000
0.900547 0.998091 1.000000
0.900546 0.998091 1.000000
0.004141 0.348546 0.039513
0.004604 0.348384 0.039280
0.005015 0.348244 0.039078
0.005477 0.348089 0.038857
0.005809 0.347980 0.038700
0.006204 0.347852 0.038517
0.006673 0.347710 0.038303
0.007294 0.347540 0.038023
0.008188 0.347301 0.037632
0.009455 0.346972 0.037096
0.011244 0.346615 0.036409
0.013748 0.346408 0.035663
0.017708 0.346077 0.034537
0.028817 0.347591 0.031312
0.047779 0.352262 0.026881
0.128934 0.360948 0.018645
0.266504 0.378080 0.007228
0.478681 0.418171 0.010073
0.718325 0.452218 0.014175
0.907374 0.487315 0.019818
0.908358 0.542033 0.029705
0.909884 0.624594 0.146720
0.906071 0.734980 0.306405
0.894027 0.856922 0.495811
0.894551 0.970461 0.706860
0.902184 1.000000 0.913825
0.900547 0.998091 1.000000
0.900547 0.998091 1.000000
0.900547 0.998091 1.000000
0.900547 0.998091 1.000000
0.900547 0.998091 1.000000
0.900546 0.998091 1.000000
0.005261 0.502512 0.078027
0.005666 0.502494 0.077822
0.006024 0.502479 0.077643
0.006424 0.502462 0.077447
0.006710 0.502450 0.077308
0.007049 0.502436 0.077146
0.007450 0.502420 0.076956
0.007979 0.502399 0.076710
0.008735 0.502369 0.076365
0.009801 0.502328 0.075892
0.011295 0.502301 0.075281
0.013369 0.502455 0.074540
0.019002 0.503542 0.072278
0.031158 0.506686 0.068216
0.049631 0.513274 0.063109
0.089035 0.523529 0.053620
0.253829 0.542393 0.038582
0.454485 0.562960 0.010572
0.713536 0.604050 0.012704
0.904868 0.638791 0.017142
0.904074 0.694375 0.034692
0.899214 0.765525 0.157474
0.891590 0.852865 0.311180
0.888465 0.942147 0.482052
0.892690 0.997168 0.703602
0.902184 1.000000 0.913825
0.900547 0.998091 1.000000
0.900547 0.998091 1.000000
0.900547 0.998091 1.000000
0.900547 0.998091 1.000000
0.900547 0.998091 1.000000
0.900546 0.998091 1.000000
0.005240 0.685430 0.126910
0.005559 0.685483 0.126837
0.005841 0.685528 0.126773
0.006154 0.685578 0.126704
0.006378 0.685614 0.126654
0.006642 0.685655 0.126597
0.006955 0.685704 0.126529
0.007365 0.685767 0.126441
0.007951 0.685856 0.126319
0.008773 0.685977 0.126150
0.009920 0.686142 0.125920
0.013395 0.687134 0.124917
0.021883 0.689768 0.122404
0.034641 0.694101 0.119661
0.053769 0.702103 0.116594
0.079916 0.715111 0.109617
0.232895 0.738566 0.099915
0.445875 0.765145 0.078984
0.691257 0.784026 0.041886
0.891793 0.814407 0.036235
0.889857 0.846544 0.061632
0.887675 0.896574 0.152537
0.884486 0.966135 0.289639
0.885795 0.983273 0.475379
0.892690 0.997168 0.703602
0.902184 1.000000 0.913825
0.900547 0.998091 1.000000
0.900547 0.998091 1.000000
0.900547 0.998091 1.000000
0.900547 0.998091 1.000000
0.900547 0.998091 1.000000
0.900546 0.998091 1.000000
0.004845 0.826271 0.139942
0.004982 0.826234 0.139910
0.005101 0.826201 0.139882
0.005233 0.826166 0.139852
0.005328 0.826140 0.139830
0.005438 0.826111 0.139805
0.005568 0.826076 0.139776
0.005738 0.826031 0.139738
0.005978 0.825968 0.139684
0.007730 0.826567 0.139020
0.011851 0.828069 0.137537
0.017950 0.830110 0.135642
0.027138 0.833181 0.133016
0.040865 0.838457 0.130014
0.060084 0.847100 0.125757
0.086647 0.861794 0.118085
0.264025 0.888096 0.107338
0.468473 0.914620 0.087117
0.709816 0.934722 0.053104
0.884043 0.936527 0.024750
0.883891 0.938174 0.041666
0.884281 0.949282 0.142386
0.884486 0.966135 0.289639
0.885795 0.983273 0.475379
0.892690 0.997168 0.703602
0.902184 1.000000 0.913825
0.900547 0.998091 1.000000
0.900547 0.998091 1.000000
0.900547 0.998091 1.000000
0.900547 0.998091 1.000000
0.900547 0.998091 1.000000
0.900546 0.998091 1.000000
0.006015 0.829950 0.166041
0.007208 0.830424 0.165546
0.008287 0.830837 0.165114
0.009512 0.831289 0.164637
0.010403 0.831610 0.164299
0.011468 0.831988 0.163918
0.012745 0.832432 0.163483
0.014451 0.833008 0.162918
0.016925 0.833817 0.162127
0.020473 0.834936 0.161027
0.025541 0.836662 0.159529
0.032714 0.839051 0.157496
0.043135 0.843174 0.154524
0.057353 0.849326 0.150383
0.076519 0.859309 0.144620
0.160181 0.877087 0.135852
0.343978 0.903158 0.122017
0.529831 0.923442 0.101679
0.757423 0.938326 0.066666
0.883891 0.938174 0.041666
0.883891 0.938174 0.041666
0.884281 0.949282 0.142386
0.884486 0.966135 0.289639
0.885795 0.983273 0.475379
0.892690 0.997168 0.703602
0.902184 1.000000 0.913825
0.900547 0.998091 1.000000
0.900547 0.998091 1.000000
0.900547 0.998091 1.000000
0.900547 0.998091 1.000000
0.900547 0.998091 1.000000
0.900546 0.998091 1.000000
0.023364 0.850697 0.245813
0.024994 0.851220 0.245243
0.026432 0.851674 0.244748
0.028035 0.852174 0.244203
0.029183 0.852528 0.243818
0.030539 0.852942 0.243369
0.032144 0.853426 0.242843
0.034256 0.854243 0.242129
0.037272 0.855397 0.241136
0.041517 0.856984 0.239771
0.047455 0.859354 0.237866
0.055056 0.862540 0.235488
0.065223 0.867539 0.232396
0.079634 0.875538 0.227858
0.130556 0.888406 0.220998
0.282078 0.907611 0.211713
0.434528 0.925591 0.196917
0.617772 0.942071 0.176660
0.817133 0.949824 0.151253
0.884281 0.949282 0.142386
0.884281 0.949282 0.142386
0.884281 0.949282 0.142386
0.884486 0.966135 0.289639
0.885795 0.983273 0.475379
0.892690 0.997168 0.703602
0.902184 1.000000 0.913825
0.900547 0.998091 1.000000
0.900547 0.998091 1.000000
0.900547 0.998091 1.000000
0.900547 0.998091 1.000000
0.900547 0.998091 1.000000
0.900546 0.998091 1.000000
0.052909 0.883597 0.368247
0.054632 0.884406 0.367930
0.056142 0.885110 0.367654
0.057812 0.885884 0.367351
0.059002 0.886553 0.367150
0.060399 0.887351 0.366913
0.062044 0.888288 0.366624
0.064196 0.889506 0.366248
0.067242 0.891213 0.365721
0.071486 0.893562 0.364997
0.077352 0.897209 0.364003
0.085369 0.902167 0.362646
0.117775 0.909608 0.360723
0.195702 0.919923 0.358003
0.309395 0.933672 0.353661
0.415365 0.944266 0.345610
0.552352 0.956096 0.332024
0.722959 0.966147 0.312101
0.884486 0.966135 0.289639
0.884486 0.966135 0.289639
0.884486 0.966135 0.289639
0.884486 0.966135 0.289639
0.884486 0.966135 0.289639
0.885795 0.983273 0.475379
0.892690 0.997168 0.703602
0.902184 1.000000 0.913825
0.900547 0.998091 1.000000
0.900547 0.998091 1.000000
0.900547 0.998091 1.000000
0.900547 0.998091 1.000000
0.900547 0.998091 1.000000
0.900546 0.998091 1.000000
0.135668 0.934682 0.531956
0.149043 0.935923 0.531651
0.160919 0.937004 0.531387
0.174216 0.938191 0.531096
0.183778 0.939031 0.530889
0.192704 0.939965 0.530649
0.201839 0.941045 0.530351
0.213849 0.942448 0.529964
0.230967 0.944417 0.529422
0.255008 0.947126 0.528677
0.284339 0.950179 0.527446
0.314361 0.952831 0.525375
0.356132 0.956609 0.522553
0.411979 0.961532 0.518569
0.485578 0.967840 0.513288
0.589172 0.976409 0.505969
0.705808 0.982119 0.495214
0.836131 0.983792 0.480522
0.885795 0.983273 0.475379
0.885795 0.983273 0.475379
0.885795 0.983273 0.475379
0.885795 0.983273 0.475379
0.885795 0.983273 0.475379
0.885795 0.983273 0.475379
0.892690 0.997168 0.703602
0.902184 1.000000 0.913825
0.900547 0.998091 1.000000
0.900547 0.998091 1.000000
0.900547 0.998091 1.000000
0.900547 0.998091 1.000000
0.900547 0.998091 1.000000
0.900546 0.998091 1.000000
0.444352 0.979179 0.726938
0.451125 0.979755 0.726755
0.456927 0.980245 0.726599
0.463322 0.980782 0.726427
0.467862 0.981163 0.726306
0.473182 0.981608 0.726164
0.479425 0.982129 0.725998
0.487624 0.982821 0.725781
0.499183 0.983787 0.725472
0.515157 0.985107 0.725044
0.537059 0.986902 0.724462
0.566536 0.989258 0.723627
0.607205 0.992411 0.722452
0.647146 0.993610 0.719947
0.699210 0.994794 0.716485
0.769763 0.996131 0.711760
0.864747 0.997745 0.705512
0.892690 0.997168 0.703602
0.892690 0.997168 0.703602
0.892690 0.997168 0.703602
0.892690 0.997168 0.703602
0.892690 0.997168 0.703602
0.892690 0.997168 0.703602
0.892690 0.997168 0.703602
0.892690 0.997168 0.703602
0.902184 1.000000 0.913825
0.900547 0.998091 1.000000
0.900547 0.998091 1.000000
0.900547 0.998091 1.000000
0.900547 0.998091 1.000000
0.900547 0.998091 1.000000
0.900546 0.998091 1.000000
0.707985 0.997630 0.924074
0.712816 0.997720 0.923809
0.717019 0.997797 0.923579
0.721644 0.997882 0.923326
0.724925 0.997942 0.923147
0.728761 0.998012 0.922938
0.733256 0.998093 0.922694
0.739102 0.998200 0.922376
0.747320 0.998349 0.921931
0.758644 0.998554 0.921319
0.774076 0.998832 0.920491
0.794449 0.999184 0.919412
0.822248 0.999641 0.917955
0.860232 1.000000 0.915964
0.901817 1.000000 0.913842
0.902184 1.000000 0.913825
0.902184 1.000000 0.913825
0.902184 1.000000 0.913825
0.902184 1.000000 0.913825
0.902184 1.000000 0.913825
0.902184 1.000000 0.913825
0.902184 1.000000 0.913825
0.902184 1.000000 0.913825
0.902184 1.000000 0.913825
0.902184 1.000000 0.913825
0.902184 1.000000 0.913825
0.900547 0.998091 1.000000
0.900547 0.998091 1.000000
0.900547 0.998091 1.000000
0.900547 0.998091 1.000000
0.900547 0.998091 1.000000
0.900546 0.998091 1.000000
0.900547 0.998091 1.000000
0.900547 0.998091 1.000000
0.900547 0.998091 1.000000
0.900547 0.998091 1.000000
0.900547 0.998091 1.000000
0.900547 0.998091 1.000000
0.900547 0.998091 1.000000
0.900547 0.998091 1.000000
0.900547 0.998091 1.000000
0.900547 0.998091 1.000000
0.900547 0.998091 1.000000
0.900547 0.998091 1.000000
0.900547 0.998091 1.000000
0.900547 0.998091 1.000000
0.900547 0.998091 1.000000
0.900547 0.998091 1.000000
0.900547 0.998091 1.000000
0.900547 0.998091 1.000000
0.900547 0.998091 1.000000
0.900547 0.998091 1.000000
0.900547 0.998091 1.000000
0.900547 0.998091 1.000000
0.900547 0.998091 1.000000
0.900547 0.998091 1.000000
0.900547 0.998091 1.000000
0.900547 0.998091 1.000000
0.900547 0.998091 1.000000
0.900547 0.998091 1.000000
0.900547 0.998091 1.000000
0.900547 0.998091 1.000000
0.900547 0.998091 1.000000
0.900546 0.998091 1.000000
0.900547 0.998091 1.000000
0.900547 0.998091 1.000000
0.900547 0.998091 1.000000
0.900547 0.998091 1.000000
0.900547 0.998091 1.000000
0.900547 0.998091 1.000000
0.900547 0.998091 1.000000
0.900547 0.998091 1.000000
0.900547 0.998091 1.000000
0.900547 0.998091 1.000000
0.900547 0.998091 1.000000
0.900547 0.998091 1.000000
0.900547 0.998091 1.000000
0.900547 0.998091 1.000000
0.900547 0.998091 1.000000
0.900547 0.998091 1.000000
0.900547 0.998091 1.000000
0.900547 0.998091 1.000000
