Tales_Helper/Assets/Horror Corridor/HorrorCorridor_Demo_Scene/Frame.CUBE
#Created by: Adobe Photoshop Export Color Lookup Plugin
TITLE "Frame.psd"
#LUT size
LUT_3D_SIZE 8
#data domain
#LUT data points
DOMAIN_MIN 0.000000 0.000000 0.000000
DOMAIN_MAX 0.903226 0.903226 0.903226
0.004590 0.003995 0.004409
0.004590 0.003995 0.004409
0.007234 0.004092 0.004427
0.042317 0.005104 0.004485
0.369346 0.009415 0.006828
0.847155 0.066657 0.050223
0.930162 0.619168 0.719010
0.900547 0.998091 1.000000
0.004590 0.003995 0.004409
0.004590 0.003995 0.004409
0.007234 0.004092 0.004427
0.042317 0.005104 0.004485
0.357130 0.019519 0.006828
0.850465 0.085132 0.049433
0.929095 0.640325 0.719396
0.900547 0.998091 1.000000
0.004707 0.007870 0.004684
0.004707 0.007870 0.004684
0.006515 0.007517 0.004629
0.036052 0.012936 0.004841
0.344182 0.034307 0.006828
0.856685 0.112254 0.047982
0.926984 0.668071 0.719834
0.900547 0.998091 1.000000
0.004196 0.054730 0.006617
0.004196 0.054730 0.006617
0.008582 0.053466 0.006150
0.028603 0.050685 0.005699
0.320557 0.083049 0.007285
0.879792 0.213687 0.042355
0.917228 0.761895 0.720853
0.900547 0.998091 1.000000
0.004141 0.348546 0.039513
0.005809 0.347980 0.038700
0.008188 0.347301 0.037632
0.017708 0.346077 0.034537
0.266504 0.378080 0.007228
0.908358 0.542033 0.029705
0.894551 0.970461 0.706860
0.900547 0.998091 1.000000
0.006015 0.829950 0.166041
0.010403 0.831610 0.164299
0.016925 0.833817 0.162127
0.043135 0.843174 0.154524
0.343978 0.903158 0.122017
0.883891 0.938174 0.041666
0.892690 0.997168 0.703602
0.900547 0.998091 1.000000
0.444352 0.979179 0.726938
0.467862 0.981163 0.726306
0.499183 0.983787 0.725472
0.607205 0.992411 0.722452
0.864747 0.997745 0.705512
0.892690 0.997168 0.703602
0.892690 0.997168 0.703602
0.900547 0.998091 1.000000
0.900547 0.998091 1.000000
0.900547 0.998091 1.000000
0.900547 0.998091 1.000000
0.900547 0.998091 1.000000
0.900547 0.998091 1.000000
0.900547 0.998091 1.000000
0.900547 0.998091 1.000000
0.900547 0.998091 1.000000
0.004590 0.003995 0.004409
0.004590 0.003995 0.004409
0.007234 0.004092 0.004427
0.042317 0.005104 0.004485
0.375362 0.009218 0.012881
0.850000 0.065914 0.074220
0.930670 0.618686 0.739257
0.900547 0.998091 1.000000
0.004590 0.003995 0.004409
0.004590 0.003995 0.004409
0.007965 0.004118 0.004431
0.043512 0.005135 0.004484
0.365693 0.019733 0.013309
0.854114 0.087063 0.076732
0.930291 0.642889 0.742646
0.900547 0.998091 1.000000
0.004707 0.007870 0.004684
0.004738 0.008970 0.004756
0.007040 0.008511 0.004686
0.036456 0.014031 0.004884
0.354484 0.033905 0.013766
0.860265 0.114647 0.075011
0.928310 0.670687 0.743093
0.900547 0.998091 1.000000
0.004196 0.054730 0.006617
0.004128 0.056258 0.006696
0.009078 0.054832 0.006172
0.029275 0.052099 0.005705
0.328439 0.083907 0.015346
0.883016 0.217417 0.065659
0.918684 0.764724 0.744128
0.900547 0.998091 1.000000
0.004141 0.351061 0.055515
0.005988 0.353167 0.056339
0.008382 0.352422 0.055176
0.017941 0.351317 0.051873
0.270959 0.382899 0.016984
0.909817 0.547666 0.057027
0.896045 0.972758 0.730028
0.900547 0.998091 1.000000
0.005947 0.833624 0.188123
0.010995 0.836093 0.189433
0.017588 0.838261 0.187114
0.043963 0.847547 0.179008
0.347779 0.907190 0.146051
0.884038 0.941790 0.076115
0.894281 0.997857 0.726971
0.900547 0.998091 1.000000
0.449744 0.980689 0.747498
0.477256 0.983118 0.749697
0.508541 0.985696 0.748865
0.613972 0.993700 0.745713
0.868680 0.998470 0.728723
0.894281 0.997857 0.726971
0.894281 0.997857 0.726971
0.900547 0.998091 1.000000
0.900547 0.998091 1.000000
0.900547 0.998091 1.000000
0.900547 0.998091 1.000000
0.900547 0.998091 1.000000
0.900547 0.998091 1.000000
0.900547 0.998091 1.000000
0.900547 0.998091 1.000000
0.900547 0.998091 1.000000
0.005014 0.004150 0.009969
0.005014 0.004150 0.009969
0.009080 0.004271 0.009503
0.053836 0.005154 0.014534
0.381769 0.009021 0.023386
0.853832 0.064946 0.110442
0.931373 0.618037 0.765775
0.900547 0.998091 1.000000
0.005014 0.004150 0.009969
0.005126 0.004191 0.011570
0.010355 0.004343 0.010963
0.056544 0.005209 0.015957
0.372716 0.018901 0.025496
0.857756 0.086285 0.113758
0.930972 0.642264 0.769201
0.900547 0.998091 1.000000
0.004692 0.007790 0.010350
0.004719 0.008866 0.012068
0.007813 0.009921 0.013307
0.042421 0.015780 0.018804
0.365068 0.034260 0.027885
0.865007 0.118029 0.118642
0.929923 0.674105 0.773605
0.900547 0.998091 1.000000
0.003448 0.054685 0.022380
0.003295 0.056207 0.024667
0.008426 0.057091 0.025542
0.029851 0.054892 0.022869
0.336979 0.085777 0.032233
0.887175 0.222724 0.114891
0.920666 0.768435 0.774719
0.900547 0.998091 1.000000
0.004141 0.354209 0.077175
0.005988 0.356289 0.078077
0.008639 0.359028 0.079265
0.018358 0.358338 0.075747
0.276623 0.390017 0.040511
0.911725 0.555815 0.106362
0.898120 0.975740 0.760443
0.900547 0.998091 1.000000
0.005857 0.839093 0.219902
0.010891 0.841631 0.221462
0.018470 0.844964 0.223666
0.045058 0.854216 0.215001
0.352759 0.913227 0.181493
0.884140 0.946732 0.118639
0.896506 0.998718 0.757618
0.900547 0.998091 1.000000
0.457059 0.982681 0.774504
0.484560 0.985076 0.776721
0.521104 0.988187 0.779632
0.620626 0.994898 0.776154
0.873933 0.999368 0.759187
0.896505 0.998718 0.757618
0.896506 0.998718 0.757618
0.900547 0.998091 1.000000
0.900547 0.998091 1.000000
0.900547 0.998091 1.000000
0.900547 0.998091 1.000000
0.900547 0.998091 1.000000
0.900547 0.998091 1.000000
0.900547 0.998091 1.000000
0.900547 0.998091 1.000000
0.900547 0.998091 1.000000
0.019264 0.004273 0.104770
0.019264 0.004273 0.104770
0.038546 0.004135 0.102803
0.128839 0.003254 0.093733
0.401915 0.007727 0.104340
0.864503 0.059879 0.239957
0.932681 0.616071 0.844263
0.900547 0.998091 1.000000
0.019264 0.004273 0.104770
0.020154 0.004229 0.108385
0.042107 0.004081 0.106173
0.134229 0.003099 0.097117
0.394220 0.015333 0.108081
0.867744 0.082273 0.244667
0.932194 0.640363 0.847380
0.900547 0.998091 1.000000
0.010871 0.013296 0.101943
0.010672 0.014482 0.105200
0.017726 0.015760 0.105828
0.068815 0.016192 0.097281
0.386822 0.030383 0.112472
0.873811 0.114885 0.251690
0.931481 0.672348 0.851402
0.900547 0.998091 1.000000
0.003133 0.056470 0.100225
0.003084 0.058075 0.103598
0.007612 0.059286 0.104213
0.034108 0.064700 0.109142
0.366395 0.095800 0.127108
0.897954 0.240398 0.276488
0.923851 0.780554 0.864152
0.900547 0.998091 1.000000
0.004141 0.365785 0.164433
0.005988 0.368349 0.165863
0.008636 0.371574 0.167798
0.020902 0.384501 0.175598
0.296604 0.416166 0.137754
0.916428 0.582290 0.280299
0.903720 0.984773 0.855779
0.900547 0.998091 1.000000
0.005558 0.858605 0.336288
0.010544 0.861277 0.338602
0.018075 0.864704 0.341741
0.048772 0.879012 0.352266
0.369116 0.937237 0.329512
0.884529 0.963759 0.268738
0.902760 1.000000 0.854461
0.900547 0.998091 1.000000
0.477560 0.987737 0.859553
0.504149 0.989826 0.861170
0.539490 0.992550 0.863277
0.637818 0.996996 0.868512
0.888797 1.000000 0.855131
0.902760 1.000000 0.854461
0.902760 1.000000 0.854461
0.900547 0.998091 1.000000
0.900547 0.998091 1.000000
0.900547 0.998091 1.000000
0.900547 0.998091 1.000000
0.900547 0.998091 1.000000
0.900547 0.998091 1.000000
0.900547 0.998091 1.000000
0.900547 0.998091 1.000000
0.900547 0.998091 1.000000
0.232035 0.005526 0.501502
0.241599 0.005526 0.500953
0.254800 0.005526 0.499851
0.291276 0.005526 0.497185
0.495308 0.005217 0.482910
0.879548 0.023581 0.606965
0.930585 0.611652 1.000000
0.900547 0.998091 1.000000
0.182309 0.009123 0.496453
0.190089 0.009443 0.498296
0.202508 0.009443 0.497854
0.240547 0.009443 0.496319
0.468067 0.008660 0.487730
0.882251 0.036500 0.614551
0.930097 0.635936 1.000000
0.900547 0.998091 1.000000
0.137943 0.014428 0.499113
0.147066 0.014778 0.501782
0.159351 0.015250 0.505325
0.201241 0.015241 0.503903
0.448554 0.013739 0.495007
0.886393 0.074666 0.625109
0.929400 0.667941 1.000000
0.900547 0.998091 1.000000
0.078219 0.067382 0.512586
0.088539 0.068755 0.515612
0.102465 0.070713 0.519646
0.154585 0.079280 0.533252
0.435936 0.059323 0.522360
0.907260 0.222356 0.663988
0.922112 0.776213 1.000000
0.900547 0.998091 1.000000
0.004045 0.403865 0.559670
0.005753 0.406848 0.562279
0.008196 0.410621 0.565657
0.019767 0.424220 0.577396
0.395877 0.494706 0.621160
0.930277 0.640218 0.739986
0.900547 0.998091 1.000000
0.900547 0.998091 1.000000
0.004544 0.914558 0.687291
0.009403 0.917351 0.690280
0.016852 0.920973 0.694189
0.047526 0.935907 0.707913
0.473538 0.982678 0.747139
0.894098 0.997781 0.724349
0.900547 0.998091 1.000000
0.900547 0.998091 1.000000
0.472864 0.984849 1.000000
0.499416 0.986944 1.000000
0.534692 0.989677 1.000000
0.634474 0.994438 1.000000
0.900547 0.998091 1.000000
0.900547 0.998091 1.000000
0.900547 0.998091 1.000000
0.900547 0.998091 1.000000
0.900547 0.998091 1.000000
0.900547 0.998091 1.000000
0.900547 0.998091 1.000000
0.900547 0.998091 1.000000
0.900547 0.998091 1.000000
0.900547 0.998091 1.000000
0.900547 0.998091 1.000000
0.900547 0.998091 1.000000
0.248924 0.032172 1.000000
0.263266 0.031913 1.000000
0.281882 0.031573 1.000000
0.344156 0.030440 1.000000
0.560078 0.026651 0.991639
0.874085 0.020167 0.978744
0.930264 0.610954 1.000000
0.900547 0.998091 1.000000
0.234347 0.048070 1.000000
0.250258 0.049118 1.000000
0.269947 0.047910 1.000000
0.339577 0.043060 1.000000
0.561427 0.034892 1.000000
0.879268 0.027304 0.985818
0.929796 0.635276 1.000000
0.900547 0.998091 1.000000
0.218234 0.076463 1.000000
0.234166 0.079120 1.000000
0.256147 0.082182 1.000000
0.335525 0.073047 1.000000
0.562044 0.050346 1.000000
0.885004 0.050918 0.995392
0.929127 0.667332 1.000000
0.900547 0.998091 1.000000
0.188010 0.204923 1.000000
0.203451 0.208133 1.000000
0.224592 0.212463 1.000000
0.309247 0.227797 1.000000
0.566744 0.216548 1.000000
0.905849 0.204567 1.000000
0.921954 0.775808 1.000000
0.900547 0.998091 1.000000
0.067120 0.561329 1.000000
0.088370 0.565300 1.000000
0.117537 0.570657 1.000000
0.218036 0.588209 1.000000
0.568669 0.643051 1.000000
0.929849 0.632537 1.000000
0.900547 0.998091 1.000000
0.900547 0.998091 1.000000
0.002837 0.937923 1.000000
0.007419 0.940184 1.000000
0.014697 0.943112 1.000000
0.111402 0.954862 1.000000
0.495721 0.986270 1.000000
0.900547 0.998091 1.000000
0.900547 0.998091 1.000000
0.900547 0.998091 1.000000
0.472131 0.984387 1.000000
0.498721 0.986508 1.000000
0.534042 0.989278 1.000000
0.634160 0.994201 1.000000
0.900547 0.998091 1.000000
0.900547 0.998091 1.000000
0.900547 0.998091 1.000000
0.900547 0.998091 1.000000
0.900547 0.998091 1.000000
0.900547 0.998091 1.000000
0.900547 0.998091 1.000000
0.900547 0.998091 1.000000
0.900547 0.998091 1.000000
0.900547 0.998091 1.000000
0.900547 0.998091 1.000000
0.900547 0.998091 1.000000
0.553065 0.621649 1.000000
0.571271 0.621509 1.000000
0.592860 0.620961 1.000000
0.666668 0.619222 1.000000
0.906639 0.612793 1.000000
0.930264 0.610954 1.000000
0.930264 0.610954 1.000000
0.900547 0.998091 1.000000
0.548592 0.642646 1.000000
0.570418 0.645730 1.000000
0.592026 0.645169 1.000000
0.665901 0.643379 1.000000
0.907601 0.637015 1.000000
0.929796 0.635276 1.000000
0.929796 0.635276 1.000000
0.900547 0.998091 1.000000
0.544119 0.670370 1.000000
0.566748 0.673601 1.000000
0.590954 0.676917 1.000000
0.664942 0.675095 1.000000
0.908809 0.668934 1.000000
0.929127 0.667332 1.000000
0.929127 0.667332 1.000000
0.900547 0.998091 1.000000
0.519544 0.761220 1.000000
0.546091 0.765164 1.000000
0.576167 0.769960 1.000000
0.661516 0.782632 1.000000
0.907881 0.776884 1.000000
0.921954 0.775808 1.000000
0.921954 0.775808 1.000000
0.900547 0.998091 1.000000
0.475895 0.958046 1.000000
0.502292 0.961746 1.000000
0.537377 0.966598 1.000000
0.635751 0.978390 1.000000
0.900547 0.998091 1.000000
0.900547 0.998091 1.000000
0.900547 0.998091 1.000000
0.900547 0.998091 1.000000
0.472131 0.984387 1.000000
0.498721 0.986508 1.000000
0.534042 0.989278 1.000000
0.634160 0.994201 1.000000
0.900547 0.998091 1.000000
0.900547 0.998091 1.000000
0.900547 0.998091 1.000000
0.900547 0.998091 1.000000
0.472131 0.984387 1.000000
0.498721 0.986508 1.000000
0.534042 0.989278 1.000000
0.634160 0.994201 1.000000
0.900547 0.998091 1.000000
0.900547 0.998091 1.000000
0.900547 0.998091 1.000000
0.900547 0.998091 1.000000
0.900547 0.998091 1.000000
0.900547 0.998091 1.000000
0.900547 0.998091 1.000000
0.900547 0.998091 1.000000
0.900547 0.998091 1.000000
0.900547 0.998091 1.000000
0.900547 0.998091 1.000000
0.900547 0.998091 1.000000
0.900547 0.998091 1.000000
0.900547 0.998091 1.000000
0.900547 0.998091 1.000000
0.900547 0.998091 1.000000
0.900547 0.998091 1.000000
0.900547 0.998091 1.000000
0.900547 0.998091 1.000000
0.900547 0.998091 1.000000
0.900547 0.998091 1.000000
0.900547 0.998091 1.000000
0.900547 0.998091 1.000000
0.900547 0.998091 1.000000
0.900547 0.998091 1.000000
0.900547 0.998091 1.000000
0.900547 0.998091 1.000000
0.900547 0.998091 1.000000
0.900547 0.998091 1.000000
0.900547 0.998091 1.000000
0.900547 0.998091 1.000000
0.900547 0.998091 1.000000
0.900547 0.998091 1.000000
0.900547 0.998091 1.000000
0.900547 0.998091 1.000000
0.900547 0.998091 1.000000
0.900547 0.998091 1.000000
0.900547 0.998091 1.000000
0.900547 0.998091 1.000000
0.900547 0.998091 1.000000
0.900547 0.998091 1.000000
0.900547 0.998091 1.000000
0.900547 0.998091 1.000000
0.900547 0.998091 1.000000
0.900547 0.998091 1.000000
0.900547 0.998091 1.000000
0.900547 0.998091 1.000000
0.900547 0.998091 1.000000
0.900547 0.998091 1.000000
0.900547 0.998091 1.000000
0.900547 0.998091 1.000000
0.900547 0.998091 1.000000
0.900547 0.998091 1.000000
0.900547 0.998091 1.000000
0.900547 0.998091 1.000000
0.900547 0.998091 1.000000
0.900547 0.998091 1.000000
0.900547 0.998091 1.000000
0.900547 0.998091 1.000000
0.900547 0.998091 1.000000
0.900547 0.998091 1.000000
0.900547 0.998091 1.000000
0.900547 0.998091 1.000000
0.900547 0.998091 1.000000
0.900547 0.998091 1.000000
0.900547 0.998091 1.000000
0.900547 0.998091 1.000000
0.900547 0.998091 1.000000
0.900547 0.998091 1.000000
0.900547 0.998091 1.000000
0.900547 0.998091 1.000000
0.900547 0.998091 1.000000
0.900547 0.998091 1.000000
0.900547 0.998091 1.000000
0.900547 0.998091 1.000000
0.900547 0.998091 1.000000
