Tales_Helper/Assets/Horror Bedroom/Demo_Scene/HorrorBedroom_Demo_Scene/Horror_Bedroom_unity_lut.CUBE
#Created by: Adobe Photoshop Export Color Lookup Plugin
#Copyright: (C) Copyright 2022 Tim Hertel
TITLE "Horror_Bedroom_unity_lut.psd"
#LUT size
LUT_3D_SIZE 5
#data domain
#LUT data points
DOMAIN_MIN 0.000000 0.000000 0.000000
DOMAIN_MAX 0.903226 0.903226 0.903226
0.000000 0.000000 0.000950
0.018596 0.000000 0.003276
0.325807 0.011499 0.007324
1.000000 0.220674 0.144343
1.000000 1.000000 1.000000
0.000000 0.038672 0.003460
0.015829 0.038737 0.001253
0.322897 0.056277 0.000092
1.000000 0.285173 0.143174
1.000000 1.000000 1.000000
0.000000 0.362255 0.015243
0.017697 0.363218 0.011957
0.295306 0.374772 0.004524
1.000000 0.612366 0.095251
1.000000 1.000000 1.000000
0.118319 1.000000 0.199834
0.157944 1.000000 0.198813
0.406533 1.000000 0.186963
1.000000 1.000000 0.178145
1.000000 1.000000 1.000000
0.109946 1.000000 0.987131
0.146432 1.000000 0.986990
0.369713 1.000000 0.986123
1.000000 1.000000 0.978849
1.000000 1.000000 0.918067
0.000000 0.000000 0.040749
0.019359 0.000000 0.040859
0.320172 0.018264 0.051254
1.000000 0.233098 0.192556
1.000000 1.000000 1.000000
0.000000 0.038567 0.040461
0.018692 0.043071 0.043655
0.322593 0.063958 0.050632
1.000000 0.288643 0.193290
1.000000 1.000000 1.000000
0.000000 0.361594 0.055070
0.021911 0.367731 0.057389
0.295895 0.378720 0.046862
1.000000 0.619897 0.147444
1.000000 1.000000 1.000000
0.114393 1.000000 0.237920
0.158424 1.000000 0.240939
0.409472 1.000000 0.230261
1.000000 1.000000 0.220094
1.000000 1.000000 1.000000
0.110659 1.000000 1.000000
0.149284 1.000000 1.000000
0.372563 1.000000 1.000000
1.000000 1.000000 1.000000
1.000000 1.000000 0.955314
0.000664 0.015491 0.300790
0.038043 0.019395 0.301678
0.293576 0.041017 0.301671
1.000000 0.331157 0.475702
1.000000 1.000000 1.000000
0.000000 0.062548 0.299284
0.038577 0.067341 0.302975
0.292371 0.087569 0.303654
1.000000 0.378711 0.479211
1.000000 1.000000 1.000000
0.000000 0.367829 0.304857
0.033075 0.372173 0.307757
0.279782 0.408644 0.328865
1.000000 0.673765 0.495936
1.000000 1.000000 1.000000
0.114885 1.000000 0.493640
0.155938 1.000000 0.496065
0.410358 1.000000 0.498952
1.000000 1.000000 0.485992
1.000000 1.000000 1.000000
0.115023 1.000000 1.000000
0.153648 1.000000 1.000000
0.389999 1.000000 1.000000
1.000000 1.000000 1.000000
1.000000 1.000000 1.000000
0.176645 0.222542 1.000000
0.213671 0.223970 1.000000
0.472462 0.247350 1.000000
1.000000 0.374404 1.000000
1.000000 1.000000 1.000000
0.175031 0.269704 1.000000
0.214283 0.274209 1.000000
0.473480 0.296912 1.000000
1.000000 0.420779 1.000000
1.000000 1.000000 1.000000
0.165352 0.585847 1.000000
0.204654 0.590795 1.000000
0.480740 0.630300 1.000000
1.000000 0.722347 1.000000
1.000000 1.000000 1.000000
0.158617 1.000000 1.000000
0.199742 1.000000 1.000000
0.454535 1.000000 1.000000
1.000000 1.000000 1.000000
1.000000 1.000000 1.000000
0.151646 1.000000 1.000000
0.190272 1.000000 1.000000
0.426623 1.000000 1.000000
1.000000 1.000000 1.000000
1.000000 1.000000 1.000000
1.000000 1.000000 1.000000
1.000000 1.000000 1.000000
1.000000 1.000000 1.000000
1.000000 1.000000 1.000000
1.000000 1.000000 1.000000
1.000000 1.000000 1.000000
1.000000 1.000000 1.000000
1.000000 1.000000 1.000000
1.000000 1.000000 1.000000
1.000000 1.000000 1.000000
1.000000 1.000000 1.000000
1.000000 1.000000 1.000000
1.000000 1.000000 1.000000
1.000000 1.000000 1.000000
1.000000 1.000000 1.000000
1.000000 1.000000 1.000000
1.000000 1.000000 1.000000
1.000000 1.000000 1.000000
1.000000 1.000000 1.000000
1.000000 1.000000 1.000000
0.457697 1.000000 1.000000
0.496322 1.000000 1.000000
0.732673 1.000000 1.000000
1.000000 1.000000 1.000000
1.000000 1.000000 1.000000
