Tales_Helper/Assets/Horror Bedroom/Demo_Scene/HorrorBedroom_Demo_Scene/Horror_Bedroom_unity_lut.CUBE
#Created by: Adobe Photoshop Export Color Lookup Plugin
#Copyright: (C) Copyright 2022 Tim Hertel
TITLE "Horror_Bedroom_unity_lut.psd"
#LUT size
LUT_3D_SIZE 32
#data domain
DOMAIN_MIN 0.0 0.0 0.0
DOMAIN_MAX 1.0 1.0 1.0
#LUT data points
0.000000 0.000000 0.000950
0.000000 0.000000 0.001226
0.000000 0.000000 0.001465
0.000000 0.000000 0.001738
0.000000 0.000000 0.001950
0.004453 0.000000 0.002309
0.010606 0.000000 0.002730
0.018596 0.000000 0.003276
0.029800 0.000000 0.004042
0.045205 0.000000 0.005096
0.070308 0.000000 0.006800
0.107190 0.000050 0.008321
0.160491 0.004296 0.010216
0.230859 0.007841 0.009241
0.325807 0.011499 0.007324
0.451027 0.018900 0.001074
0.620176 0.034789 0.009037
0.863909 0.054778 0.024794
1.000000 0.072712 0.052315
1.000000 0.104077 0.073602
1.000000 0.150766 0.103195
1.000000 0.220674 0.144343
1.000000 0.322534 0.199759
1.000000 0.459624 0.275797
1.000000 0.634046 0.376821
1.000000 0.856352 0.515289
1.000000 1.000000 0.694044
1.000000 1.000000 0.934455
1.000000 1.000000 1.000000
1.000000 1.000000 1.000000
1.000000 1.000000 1.000000
1.000000 1.000000 1.000000
0.000000 0.000000 0.001171
0.000000 0.000000 0.001153
0.000000 0.000000 0.001398
0.000000 0.000000 0.001678
0.000000 0.000000 0.001914
0.004124 0.000000 0.002284
0.010275 0.000000 0.002717
0.018262 0.000000 0.003280
0.029462 0.000091 0.004068
0.044862 0.002182 0.005153
0.070357 0.004225 0.006882
0.107309 0.005781 0.008433
0.160611 0.009808 0.009917
0.230878 0.013485 0.008881
0.325551 0.017358 0.006284
0.450388 0.024575 0.000863
0.619651 0.040751 0.008898
0.863468 0.061028 0.024746
1.000000 0.078773 0.051905
1.000000 0.110845 0.073195
1.000000 0.157715 0.102904
1.000000 0.228712 0.144226
1.000000 0.329766 0.199711
1.000000 0.466232 0.275654
1.000000 0.640552 0.376805
1.000000 0.862481 0.514719
1.000000 1.000000 0.693585
1.000000 1.000000 0.934848
1.000000 1.000000 1.000000
1.000000 1.000000 1.000000
1.000000 1.000000 1.000000
1.000000 1.000000 1.000000
0.000000 0.000000 0.001497
0.000000 0.000079 0.001478
0.000000 0.000185 0.001462
0.000000 0.000690 0.001742
0.000000 0.001167 0.001953
0.003813 0.001858 0.002258
0.009964 0.002693 0.002691
0.017951 0.003777 0.003253
0.029151 0.005298 0.004042
0.044552 0.007389 0.005126
0.070466 0.009269 0.006908
0.107486 0.010850 0.008419
0.160744 0.014825 0.009386
0.230865 0.018637 0.008379
0.325324 0.022457 0.005383
0.449741 0.029657 0.000789
0.619237 0.045740 0.008779
0.863114 0.066247 0.024709
1.000000 0.084046 0.051549
1.000000 0.116891 0.072941
1.000000 0.163761 0.102651
1.000000 0.235704 0.144124
1.000000 0.336059 0.199670
1.000000 0.472075 0.275527
1.000000 0.646035 0.376804
1.000000 0.867807 0.514162
1.000000 1.000000 0.693186
1.000000 1.000000 0.935190
1.000000 1.000000 1.000000
1.000000 1.000000 1.000000
1.000000 1.000000 1.000000
1.000000 1.000000 1.000000
0.000000 0.006391 0.001924
0.000000 0.006513 0.001905
0.000000 0.006619 0.001889
0.000000 0.006739 0.001870
0.000000 0.007226 0.002070
0.003454 0.007794 0.001971
0.009604 0.008628 0.002341
0.017589 0.009730 0.002880
0.028787 0.011277 0.003637
0.044184 0.013403 0.004676
0.070551 0.015440 0.005782
0.107607 0.017050 0.007234
0.160595 0.020826 0.008352
0.230581 0.024773 0.007708
0.324899 0.028380 0.004456
0.449004 0.035446 0.000705
0.618765 0.051424 0.008644
0.862628 0.072166 0.024613
1.000000 0.090052 0.051143
1.000000 0.123778 0.072653
1.000000 0.170648 0.102362
1.000000 0.243670 0.144008
1.000000 0.343489 0.199646
1.000000 0.478917 0.275381
1.000000 0.652259 0.376804
1.000000 0.873874 0.513528
1.000000 1.000000 0.692731
1.000000 1.000000 0.935580
1.000000 1.000000 1.000000
1.000000 1.000000 1.000000
1.000000 1.000000 1.000000
1.000000 1.000000 1.000000
0.000000 0.012467 0.002214
0.000000 0.012589 0.002195
0.000000 0.012695 0.002178
0.000000 0.012808 0.002156
0.000000 0.012765 0.001985
0.003123 0.013332 0.001886
0.009272 0.014028 0.001859
0.017258 0.015130 0.002398
0.028456 0.016677 0.003154
0.043853 0.018803 0.004194
0.070392 0.020946 0.004832
0.107702 0.022562 0.006142
0.160446 0.026159 0.007418
0.230329 0.030214 0.007113
0.324522 0.033632 0.003635
0.448351 0.040580 0.000631
0.618346 0.056465 0.008525
0.862141 0.077394 0.024491
1.000000 0.095891 0.050766
1.000000 0.129886 0.072397
1.000000 0.176756 0.102106
1.000000 0.250787 0.143902
1.000000 0.350789 0.199689
1.000000 0.484985 0.275252
1.000000 0.657779 0.376804
1.000000 0.879255 0.512965
1.000000 1.000000 0.692327
1.000000 1.000000 0.935925
1.000000 1.000000 1.000000
1.000000 1.000000 1.000000
1.000000 1.000000 1.000000
1.000000 1.000000 1.000000
0.000000 0.019569 0.002551
0.000000 0.019691 0.002533
0.000000 0.019797 0.002516
0.000000 0.019898 0.002488
0.000000 0.019855 0.002307
0.002735 0.019803 0.001787
0.008885 0.020468 0.001671
0.016871 0.021440 0.001834
0.028068 0.022986 0.002591
0.043466 0.025112 0.003630
0.070171 0.027378 0.003742
0.107812 0.029001 0.004866
0.160271 0.032389 0.006325
0.230034 0.036572 0.006418
0.324082 0.039769 0.002675
0.447588 0.046578 0.000544
0.617857 0.062355 0.008385
0.861572 0.083502 0.024350
1.000000 0.102819 0.050316
1.000000 0.137022 0.072097
1.000000 0.183898 0.101808
1.000000 0.260106 0.143705
1.000000 0.359317 0.199739
1.000000 0.492074 0.275100
1.000000 0.664228 0.376803
1.000000 0.885542 0.512308
1.000000 1.000000 0.691856
1.000000 1.000000 0.936329
1.000000 1.000000 1.000000
1.000000 1.000000 1.000000
1.000000 1.000000 1.000000
1.000000 1.000000 1.000000
0.000000 0.027880 0.002947
0.000000 0.028002 0.002928
0.000000 0.028108 0.002911
0.000000 0.028197 0.002877
0.000000 0.028154 0.002684
0.002607 0.028102 0.002164
0.008432 0.028040 0.001555
0.016417 0.028903 0.001404
0.027615 0.030370 0.001931
0.043012 0.032496 0.002971
0.069913 0.034905 0.002466
0.107941 0.036537 0.003373
0.160079 0.039705 0.005059
0.229713 0.044012 0.005419
0.323566 0.046951 0.001551
0.446710 0.053637 0.000442
0.617285 0.069248 0.008222
0.860931 0.090712 0.024190
1.000000 0.111174 0.049692
1.000000 0.145374 0.071445
1.000000 0.194466 0.101446
1.000000 0.271011 0.143474
1.000000 0.369298 0.199798
1.000000 0.500371 0.274923
1.000000 0.671775 0.376803
1.000000 0.892899 0.511539
1.000000 1.000000 0.691305
1.000000 1.000000 0.936802
1.000000 1.000000 1.000000
1.000000 1.000000 1.000000
1.000000 1.000000 1.000000
1.000000 1.000000 1.000000
0.000000 0.038672 0.003460
0.000000 0.038794 0.003441
0.000000 0.038900 0.003425
0.000000 0.038973 0.003383
0.000000 0.038930 0.003174
0.002441 0.038877 0.002654
0.008266 0.038816 0.002044
0.015829 0.038737 0.001253
0.027027 0.039958 0.001074
0.042424 0.042084 0.002114
0.069352 0.044490 0.001585
0.108108 0.046322 0.001435
0.160018 0.049600 0.003609
0.229345 0.053645 0.003826
0.322897 0.056277 0.000092
0.445704 0.062971 0.000143
0.616541 0.078198 0.008009
0.860310 0.100617 0.024041
1.000000 0.122025 0.048895
1.000000 0.156218 0.070599
1.000000 0.208474 0.101083
1.000000 0.285173 0.143174
1.000000 0.382258 0.199874
1.000000 0.511306 0.274821
1.000000 0.681575 0.376803
1.000000 0.902453 0.510540
1.000000 1.000000 0.690588
1.000000 1.000000 0.937415
1.000000 1.000000 1.000000
1.000000 1.000000 1.000000
1.000000 1.000000 1.000000
1.000000 1.000000 1.000000
0.000000 0.053806 0.004179
0.000000 0.053928 0.004161
0.000000 0.054034 0.004144
0.000000 0.054084 0.004092
0.000000 0.054040 0.003861
0.002208 0.053988 0.003341
0.008033 0.053927 0.002731
0.015596 0.053847 0.001940
0.026202 0.053736 0.000831
0.041599 0.055529 0.000913
0.068566 0.057931 0.000350
0.108246 0.060042 0.000000
0.160154 0.063362 0.001094
0.228952 0.066905 0.001499
0.321985 0.069389 0.000000
0.444632 0.076576 0.000000
0.615437 0.092814 0.007661
0.859766 0.114168 0.023837
1.000000 0.137242 0.047777
1.000000 0.171425 0.069413
1.000000 0.228336 0.100664
1.000000 0.304118 0.143048
1.000000 0.399890 0.199879
1.000000 0.526049 0.274613
1.000000 0.695318 0.376802
1.000000 0.915767 0.509044
1.000000 1.000000 0.689488
1.000000 1.000000 0.938287
1.000000 1.000000 1.000000
1.000000 1.000000 1.000000
1.000000 1.000000 1.000000
1.000000 1.000000 1.000000
0.000000 0.074550 0.005169
0.000000 0.074672 0.005150
0.000000 0.074778 0.005133
0.000000 0.074760 0.005013
0.000000 0.074726 0.004758
0.001921 0.074685 0.004243
0.007740 0.074636 0.003640
0.015296 0.074574 0.002858
0.025892 0.074486 0.001761
0.040464 0.074360 0.000250
0.067546 0.076404 0.000000
0.107441 0.078766 0.000000
0.159952 0.082400 0.000000
0.228288 0.085731 0.000000
0.320900 0.088593 0.000000
0.443639 0.097317 0.000000
0.613584 0.114406 0.007036
0.858782 0.133066 0.023691
1.000000 0.158014 0.046650
1.000000 0.197799 0.068641
1.000000 0.255776 0.100198
1.000000 0.328297 0.142872
1.000000 0.421082 0.199433
1.000000 0.547572 0.274048
1.000000 0.715122 0.375462
1.000000 0.935634 0.506728
1.000000 1.000000 0.686220
1.000000 1.000000 0.939294
1.000000 1.000000 1.000000
1.000000 1.000000 1.000000
1.000000 1.000000 1.000000
1.000000 1.000000 1.000000
0.000000 0.102346 0.006118
0.000000 0.102468 0.006100
0.000000 0.102574 0.006083
0.000000 0.102583 0.005890
0.000000 0.102605 0.005488
0.001857 0.102648 0.004886
0.007894 0.102700 0.004181
0.015633 0.102589 0.003311
0.026227 0.102499 0.002214
0.040794 0.102375 0.000705
0.064208 0.102552 0.000000
0.103408 0.104954 0.000000
0.156320 0.109057 0.000000
0.226605 0.113409 0.000000
0.319007 0.116087 0.000000
0.444093 0.123900 0.000000
0.610901 0.143739 0.006608
0.856876 0.161711 0.023527
1.000000 0.191720 0.045848
1.000000 0.234207 0.068359
1.000000 0.290146 0.099688
1.000000 0.358566 0.141813
1.000000 0.451761 0.198154
1.000000 0.580086 0.272865
1.000000 0.744244 0.373681
1.000000 0.964976 0.503947
1.000000 1.000000 0.680656
1.000000 1.000000 0.938971
1.000000 1.000000 1.000000
1.000000 1.000000 1.000000
1.000000 1.000000 1.000000
1.000000 1.000000 1.000000
0.000000 0.139575 0.007321
0.000000 0.139697 0.007303
0.000000 0.139777 0.007246
0.000000 0.139769 0.007024
0.000000 0.139800 0.006550
0.001345 0.139844 0.005948
0.007381 0.139895 0.005243
0.015219 0.139962 0.004328
0.026211 0.140055 0.003045
0.041421 0.140047 0.001309
0.065158 0.140210 0.000170
0.098407 0.140001 0.000000
0.151392 0.144314 0.000000
0.222112 0.149289 0.000000
0.316314 0.153123 0.000000
0.443536 0.159238 0.000000
0.608505 0.183420 0.004751
0.853714 0.209740 0.023040
1.000000 0.239066 0.045609
1.000000 0.279637 0.068006
1.000000 0.330252 0.098238
1.000000 0.399280 0.139935
1.000000 0.493890 0.196673
1.000000 0.619145 0.270389
1.000000 0.783174 0.371284
1.000000 1.000000 0.499696
1.000000 1.000000 0.676187
1.000000 1.000000 0.938540
1.000000 1.000000 1.000000
1.000000 1.000000 1.000000
1.000000 1.000000 1.000000
1.000000 1.000000 1.000000
0.000000 0.190759 0.007944
0.000000 0.190881 0.007925
0.000000 0.190976 0.007730
0.000000 0.191078 0.007445
0.000000 0.191133 0.007227
0.001477 0.191198 0.006973
0.007739 0.191274 0.006676
0.015870 0.191373 0.006290
0.026975 0.191468 0.005218
0.042481 0.191649 0.003548
0.066802 0.192040 0.001711
0.099817 0.192128 0.000000
0.145779 0.193760 0.000000
0.214750 0.200896 0.000000
0.308782 0.206024 0.000000
0.439527 0.213689 0.000000
0.613422 0.227678 0.003991
0.853046 0.264465 0.018052
1.000000 0.298194 0.044755
1.000000 0.335805 0.067398
1.000000 0.386230 0.095439
1.000000 0.455368 0.135200
1.000000 0.550429 0.192950
1.000000 0.671595 0.266251
1.000000 0.831657 0.357268
1.000000 1.000000 0.487410
1.000000 1.000000 0.683697
1.000000 1.000000 0.937952
1.000000 1.000000 1.000000
1.000000 1.000000 1.000000
1.000000 1.000000 1.000000
1.000000 1.000000 1.000000
0.000000 0.261415 0.009228
0.000000 0.261511 0.009134
0.000000 0.261560 0.008956
0.000000 0.261617 0.008739
0.000000 0.261670 0.008364
0.002058 0.261732 0.007925
0.008203 0.261804 0.007413
0.016278 0.261901 0.006925
0.027675 0.262041 0.006381
0.044303 0.262258 0.005222
0.068390 0.262640 0.002716
0.101306 0.263004 0.000000
0.148423 0.265586 0.000000
0.209349 0.269567 0.000000
0.300168 0.277483 0.000000
0.431378 0.288636 0.000000
0.611284 0.302083 0.001264
0.857753 0.329677 0.013377
1.000000 0.372266 0.040605
1.000000 0.408723 0.058811
1.000000 0.457061 0.083884
1.000000 0.522900 0.120721
1.000000 0.611766 0.166299
1.000000 0.734231 0.243790
1.000000 0.901008 0.346753
1.000000 1.000000 0.492933
1.000000 1.000000 0.692329
1.000000 1.000000 0.937154
1.000000 1.000000 1.000000
1.000000 1.000000 1.000000
1.000000 1.000000 1.000000
1.000000 1.000000 1.000000
0.000000 0.362255 0.015243
0.000000 0.362416 0.014882
0.000000 0.362556 0.014567
0.000000 0.362715 0.014209
0.000000 0.362833 0.013839
0.003985 0.362937 0.013329
0.009951 0.363059 0.012732
0.017697 0.363218 0.011957
0.028577 0.363434 0.010865
0.045163 0.363824 0.009687
0.068519 0.364552 0.008916
0.100970 0.365237 0.007428
0.149403 0.366978 0.004905
0.210633 0.370915 0.005379
0.295306 0.374772 0.004524
0.421236 0.390971 0.007742
0.602893 0.408999 0.002628
0.857636 0.431486 0.008241
1.000000 0.453863 0.021096
1.000000 0.488597 0.037672
1.000000 0.541333 0.061279
1.000000 0.612366 0.095251
1.000000 0.707978 0.149356
1.000000 0.832816 0.234856
1.000000 0.997981 0.353370
1.000000 1.000000 0.506557
1.000000 1.000000 0.697162
1.000000 1.000000 0.936072
1.000000 1.000000 1.000000
1.000000 1.000000 1.000000
1.000000 1.000000 1.000000
1.000000 1.000000 1.000000
0.000000 0.506651 0.029555
0.000000 0.506791 0.029593
0.000000 0.506913 0.029627
0.000449 0.507052 0.029665
0.004716 0.507175 0.029699
0.009701 0.507318 0.029739
0.015555 0.507536 0.029806
0.023200 0.507924 0.029975
0.033936 0.508592 0.030369
0.049509 0.508932 0.029960
0.071408 0.509425 0.028631
0.102868 0.510137 0.026430
0.150863 0.513014 0.023624
0.217173 0.516063 0.018347
0.299864 0.521682 0.020453
0.418125 0.529174 0.020348
0.593514 0.551917 0.026015
0.849307 0.577433 0.019903
1.000000 0.595665 0.018018
1.000000 0.634041 0.034546
1.000000 0.685537 0.061778
1.000000 0.753783 0.104952
1.000000 0.843918 0.169800
1.000000 0.967622 0.263000
1.000000 1.000000 0.377873
1.000000 1.000000 0.521504
1.000000 1.000000 0.696166
1.000000 1.000000 0.934604
1.000000 1.000000 1.000000
1.000000 1.000000 1.000000
1.000000 1.000000 1.000000
1.000000 1.000000 1.000000
0.011145 0.710835 0.064334
0.017108 0.711048 0.064362
0.022297 0.711234 0.064386
0.028207 0.711446 0.064413
0.033448 0.711633 0.064437
0.039573 0.711852 0.064465
0.046692 0.712088 0.064428
0.055415 0.712306 0.064234
0.067930 0.712619 0.063853
0.084256 0.712999 0.063124
0.105337 0.713523 0.062106
0.135230 0.714323 0.061030
0.177142 0.715328 0.059242
0.239845 0.718946 0.053045
0.324335 0.724318 0.050433
0.440678 0.729438 0.049296
0.598221 0.738579 0.054613
0.838689 0.762878 0.054881
1.000000 0.784364 0.035027
1.000000 0.821153 0.060453
1.000000 0.870019 0.096523
1.000000 0.936520 0.146980
1.000000 1.000000 0.214828
1.000000 1.000000 0.295374
1.000000 1.000000 0.398867
1.000000 1.000000 0.525771
1.000000 1.000000 0.694181
1.000000 1.000000 0.932619
1.000000 1.000000 1.000000
1.000000 1.000000 1.000000
1.000000 1.000000 1.000000
1.000000 1.000000 1.000000
0.077121 0.978382 0.106171
0.081967 0.978600 0.106233
0.086407 0.978813 0.106343
0.091524 0.979062 0.106483
0.096063 0.979283 0.106607
0.101363 0.979594 0.106748
0.107531 0.979957 0.106905
0.115247 0.980413 0.107032
0.126068 0.980907 0.106834
0.141232 0.981395 0.106184
0.161847 0.981771 0.105959
0.191783 0.982190 0.104779
0.231097 0.982738 0.101702
0.287584 0.984940 0.099245
0.364494 0.986422 0.093935
0.477241 0.990702 0.087509
0.628580 0.995677 0.090346
0.841047 1.000000 0.093000
1.000000 1.000000 0.100901
1.000000 1.000000 0.123487
1.000000 1.000000 0.154150
1.000000 1.000000 0.194119
1.000000 1.000000 0.245487
1.000000 1.000000 0.313647
1.000000 1.000000 0.401082
1.000000 1.000000 0.523083
1.000000 1.000000 0.691493
1.000000 1.000000 0.929930
1.000000 1.000000 1.000000
1.000000 1.000000 1.000000
1.000000 1.000000 1.000000
1.000000 1.000000 1.000000
0.126444 1.000000 0.142594
0.131340 1.000000 0.142440
0.135600 1.000000 0.142306
0.140453 1.000000 0.142154
0.144800 1.000000 0.142019
0.149887 1.000000 0.141860
0.155839 1.000000 0.141675
0.163569 1.000000 0.141434
0.174434 1.000000 0.141132
0.189626 1.000000 0.141076
0.210766 1.000000 0.141000
0.239343 1.000000 0.140749
0.278349 1.000000 0.138236
0.331282 1.000000 0.134981
0.405903 1.000000 0.130979
0.512816 1.000000 0.124562
0.661886 1.000000 0.119744
0.860822 1.000000 0.122052
1.000000 1.000000 0.126495
1.000000 1.000000 0.144550
1.000000 1.000000 0.167560
1.000000 1.000000 0.198833
1.000000 1.000000 0.245461
1.000000 1.000000 0.310001
1.000000 1.000000 0.397437
1.000000 1.000000 0.519437
1.000000 1.000000 0.687847
1.000000 1.000000 0.926285
1.000000 1.000000 1.000000
1.000000 1.000000 1.000000
1.000000 1.000000 1.000000
1.000000 1.000000 1.000000
0.124448 1.000000 0.155928
0.129401 1.000000 0.155773
0.133710 1.000000 0.155639
0.138619 1.000000 0.155486
0.142973 1.000000 0.155350
0.148059 1.000000 0.155192
0.154012 1.000000 0.155006
0.161741 1.000000 0.154765
0.172587 1.000000 0.154613
0.188374 1.000000 0.154460
0.209696 1.000000 0.154384
0.238163 1.000000 0.153955
0.276900 1.000000 0.151152
0.330714 1.000000 0.148175
0.405502 1.000000 0.143550
0.514186 1.000000 0.137060
0.663999 1.000000 0.133362
0.861987 1.000000 0.135482
1.000000 1.000000 0.140791
1.000000 1.000000 0.139612
1.000000 1.000000 0.162622
1.000000 1.000000 0.193894
1.000000 1.000000 0.240522
1.000000 1.000000 0.305063
1.000000 1.000000 0.392498
1.000000 1.000000 0.514498
1.000000 1.000000 0.682909
1.000000 1.000000 0.921346
1.000000 1.000000 1.000000
1.000000 1.000000 1.000000
1.000000 1.000000 1.000000
1.000000 1.000000 1.000000
0.121850 1.000000 0.174319
0.126803 1.000000 0.174165
0.131112 1.000000 0.174031
0.136021 1.000000 0.173878
0.140371 1.000000 0.173802
0.145452 1.000000 0.173781
0.151777 1.000000 0.173621
0.159991 1.000000 0.173414
0.171549 1.000000 0.173125
0.187420 1.000000 0.172943
0.208678 1.000000 0.172722
0.236859 1.000000 0.171955
0.275705 1.000000 0.169760
0.329993 1.000000 0.166497
0.405690 1.000000 0.161947
0.516396 1.000000 0.154852
0.666581 1.000000 0.153382
0.864171 1.000000 0.154324
1.000000 1.000000 0.158708
1.000000 1.000000 0.157529
1.000000 1.000000 0.155933
1.000000 1.000000 0.187205
1.000000 1.000000 0.233833
1.000000 1.000000 0.298374
1.000000 1.000000 0.385809
1.000000 1.000000 0.507809
1.000000 1.000000 0.676220
1.000000 1.000000 0.914657
1.000000 1.000000 1.000000
1.000000 1.000000 1.000000
1.000000 1.000000 1.000000
1.000000 1.000000 1.000000
0.118319 1.000000 0.199834
0.123582 1.000000 0.199698
0.128160 1.000000 0.199580
0.133376 1.000000 0.199446
0.138001 1.000000 0.199327
0.143406 1.000000 0.199187
0.149730 1.000000 0.199024
0.157944 1.000000 0.198813
0.169398 1.000000 0.198603
0.185014 1.000000 0.198453
0.206062 1.000000 0.198005
0.234951 1.000000 0.196647
0.273831 1.000000 0.195113
0.330121 1.000000 0.191182
0.406533 1.000000 0.186963
0.519043 1.000000 0.180786
0.668914 1.000000 0.180524
0.865692 1.000000 0.182127
1.000000 1.000000 0.183083
1.000000 1.000000 0.181904
1.000000 1.000000 0.180308
1.000000 1.000000 0.178145
1.000000 1.000000 0.224773
1.000000 1.000000 0.289314
1.000000 1.000000 0.376749
1.000000 1.000000 0.498749
1.000000 1.000000 0.667160
1.000000 1.000000 0.905597
1.000000 1.000000 1.000000
1.000000 1.000000 1.000000
1.000000 1.000000 1.000000
1.000000 1.000000 1.000000
0.113570 1.000000 0.236096
0.118732 1.000000 0.236013
0.123225 1.000000 0.235941
0.128340 1.000000 0.235859
0.132879 1.000000 0.235786
0.138179 1.000000 0.235702
0.144385 1.000000 0.235602
0.152441 1.000000 0.235473
0.163738 1.000000 0.235292
0.180019 1.000000 0.234332
0.202185 1.000000 0.232561
0.231728 1.000000 0.230613
0.272336 1.000000 0.229769
0.329900 1.000000 0.227437
0.410121 1.000000 0.221473
0.521231 1.000000 0.215869
0.669721 1.000000 0.217079
0.864701 1.000000 0.221767
1.000000 1.000000 0.220374
1.000000 1.000000 0.219196
1.000000 1.000000 0.217599
1.000000 1.000000 0.215437
1.000000 1.000000 0.212510
1.000000 1.000000 0.277050
1.000000 1.000000 0.364486
1.000000 1.000000 0.486486
1.000000 1.000000 0.654896
1.000000 1.000000 0.893334
1.000000 1.000000 1.000000
1.000000 1.000000 1.000000
1.000000 1.000000 1.000000
1.000000 1.000000 1.000000
0.108549 1.000000 0.284750
0.113824 1.000000 0.284731
0.118413 1.000000 0.284713
0.123640 1.000000 0.284694
0.128275 1.000000 0.284677
0.133692 1.000000 0.284657
0.140031 1.000000 0.284633
0.148262 1.000000 0.284603
0.159607 1.000000 0.284888
0.175641 1.000000 0.284570
0.197798 1.000000 0.283506
0.228563 1.000000 0.282900
0.272371 1.000000 0.280131
0.331089 1.000000 0.276433
0.410750 1.000000 0.271534
0.523329 1.000000 0.267483
0.675454 1.000000 0.268713
0.860403 1.000000 0.273134
1.000000 1.000000 0.272264
1.000000 1.000000 0.271085
1.000000 1.000000 0.269489
1.000000 1.000000 0.267326
1.000000 1.000000 0.264399
1.000000 1.000000 0.260433
1.000000 1.000000 0.347869
1.000000 1.000000 0.469869
1.000000 1.000000 0.638280
1.000000 1.000000 0.876717
1.000000 1.000000 1.000000
1.000000 1.000000 1.000000
1.000000 1.000000 1.000000
1.000000 1.000000 1.000000
0.097022 1.000000 0.351755
0.102474 1.000000 0.351857
0.107772 1.000000 0.352079
0.113856 1.000000 0.352345
0.119253 1.000000 0.352580
0.125558 1.000000 0.352855
0.132937 1.000000 0.353177
0.142558 1.000000 0.353515
0.156108 1.000000 0.353871
0.173741 1.000000 0.354270
0.196160 1.000000 0.354439
0.226461 1.000000 0.353574
0.271019 1.000000 0.350387
0.332082 1.000000 0.345376
0.413481 1.000000 0.340082
0.527020 1.000000 0.339730
0.678557 1.000000 0.343630
0.848868 1.000000 0.343431
1.000000 1.000000 0.342561
1.000000 1.000000 0.341383
1.000000 1.000000 0.339786
1.000000 1.000000 0.337624
1.000000 1.000000 0.334697
1.000000 1.000000 0.330731
1.000000 1.000000 0.325358
1.000000 1.000000 0.447358
1.000000 1.000000 0.615768
1.000000 1.000000 0.854206
1.000000 1.000000 1.000000
1.000000 1.000000 1.000000
1.000000 1.000000 1.000000
1.000000 1.000000 1.000000
0.096483 1.000000 0.450391
0.102249 1.000000 0.450553
0.107428 1.000000 0.450694
0.113328 1.000000 0.450854
0.118557 1.000000 0.450996
0.124671 1.000000 0.451162
0.131825 1.000000 0.451356
0.141116 1.000000 0.451599
0.154140 1.000000 0.451719
0.171954 1.000000 0.451286
0.195663 1.000000 0.450203
0.227795 1.000000 0.449135
0.273224 1.000000 0.447617
0.337000 1.000000 0.443361
0.425139 1.000000 0.440759
0.536716 1.000000 0.442138
0.668209 1.000000 0.442868
0.833482 1.000000 0.442226
1.000000 1.000000 0.441356
1.000000 1.000000 0.440178
1.000000 1.000000 0.438581
1.000000 1.000000 0.436419
1.000000 1.000000 0.433492
1.000000 1.000000 0.429526
1.000000 1.000000 0.424153
1.000000 1.000000 0.416878
1.000000 1.000000 0.585289
1.000000 1.000000 0.823726
1.000000 1.000000 1.000000
1.000000 1.000000 1.000000
1.000000 1.000000 1.000000
1.000000 1.000000 1.000000
0.099627 1.000000 0.586866
0.105477 1.000000 0.586860
0.110562 1.000000 0.586855
0.116446 1.000000 0.586957
0.121729 1.000000 0.587126
0.127896 1.000000 0.587323
0.135118 1.000000 0.587554
0.144492 1.000000 0.587853
0.157636 1.000000 0.588273
0.175911 1.000000 0.587768
0.201556 1.000000 0.585865
0.236510 1.000000 0.583346
0.287127 1.000000 0.582285
0.353931 1.000000 0.581694
0.435717 1.000000 0.580708
0.526204 1.000000 0.580333
0.648253 1.000000 0.579860
0.813527 1.000000 0.579218
1.000000 1.000000 0.578348
1.000000 1.000000 0.577169
1.000000 1.000000 0.575573
1.000000 1.000000 0.573410
1.000000 1.000000 0.570483
1.000000 1.000000 0.566517
1.000000 1.000000 0.561144
1.000000 1.000000 0.553870
1.000000 1.000000 0.544020
1.000000 1.000000 0.782457
1.000000 1.000000 1.000000
1.000000 1.000000 1.000000
1.000000 1.000000 1.000000
1.000000 1.000000 1.000000
0.121381 1.000000 0.771985
0.127344 1.000000 0.771955
0.133314 1.000000 0.772342
0.140454 1.000000 0.772794
0.146783 1.000000 0.773195
0.154184 1.000000 0.773663
0.162843 1.000000 0.774211
0.174089 1.000000 0.774931
0.189869 1.000000 0.775948
0.208468 1.000000 0.777352
0.228290 1.000000 0.777275
0.254803 1.000000 0.777172
0.290966 1.000000 0.777032
0.340016 1.000000 0.776842
0.406560 1.000000 0.776583
0.496836 1.000000 0.776233
