Tales_Helper/Assets/Horror Bedroom/Demo_Scene/HorrorBedroom_Demo_Scene/Horror_Bedroom_unity_lut.CUBE
#Created by: Adobe Photoshop Export Color Lookup Plugin
#Copyright: (C) Copyright 2022 Tim Hertel
TITLE "Horror_Bedroom_unity_lut.psd"
#LUT size
LUT_3D_SIZE 8
#data domain
#LUT data points
DOMAIN_MIN 0.000000 0.000000 0.000000
DOMAIN_MAX 0.903226 0.903226 0.903226
0.000000 0.000000 0.000950
0.000000 0.000000 0.001950
0.029800 0.000000 0.004042
0.160491 0.004296 0.010216
0.620176 0.034789 0.009037
1.000000 0.150766 0.103195
1.000000 0.634046 0.376821
1.000000 1.000000 1.000000
0.000000 0.012467 0.002214
0.000000 0.012765 0.001985
0.028456 0.016677 0.003154
0.160446 0.026159 0.007418
0.618346 0.056465 0.008525
1.000000 0.176756 0.102106
1.000000 0.657779 0.376804
1.000000 1.000000 1.000000
0.000000 0.053806 0.004179
0.000000 0.054040 0.003861
0.026202 0.053736 0.000831
0.160154 0.063362 0.001094
0.615437 0.092814 0.007661
1.000000 0.228336 0.100664
1.000000 0.695318 0.376802
1.000000 1.000000 1.000000
0.000000 0.190759 0.007944
0.000000 0.191133 0.007227
0.026975 0.191468 0.005218
0.145779 0.193760 0.000000
0.613422 0.227678 0.003991
1.000000 0.386230 0.095439
1.000000 0.831657 0.357268
1.000000 1.000000 1.000000
0.011145 0.710835 0.064334
0.033448 0.711633 0.064437
0.067930 0.712619 0.063853
0.177142 0.715328 0.059242
0.598221 0.738579 0.054613
1.000000 0.870019 0.096523
1.000000 1.000000 0.398867
1.000000 1.000000 1.000000
0.121850 1.000000 0.174319
0.140371 1.000000 0.173802
0.171549 1.000000 0.173125
0.275705 1.000000 0.169760
0.666581 1.000000 0.153382
1.000000 1.000000 0.155933
1.000000 1.000000 0.385809
1.000000 1.000000 1.000000
0.097022 1.000000 0.351755
0.119253 1.000000 0.352580
0.156108 1.000000 0.353871
0.271019 1.000000 0.350387
0.678557 1.000000 0.343630
1.000000 1.000000 0.339786
1.000000 1.000000 0.325358
1.000000 1.000000 1.000000
0.109946 1.000000 0.987131
0.128070 1.000000 0.987061
0.157039 1.000000 0.986949
0.254115 1.000000 0.986572
0.582036 1.000000 0.985299
1.000000 1.000000 0.981012
1.000000 1.000000 0.966584
1.000000 1.000000 0.918067
0.000000 0.000000 0.020474
0.000000 0.000000 0.020451
0.030167 0.000000 0.022157
0.156768 0.006171 0.030146
0.620918 0.033135 0.030358
1.000000 0.151273 0.125968
1.000000 0.640077 0.402207
1.000000 1.000000 1.000000
0.000000 0.012575 0.020431
0.000000 0.014658 0.021723
0.029879 0.018620 0.023660
0.159671 0.028632 0.029460
0.620759 0.057155 0.030932
1.000000 0.179533 0.127397
1.000000 0.664122 0.402780
1.000000 1.000000 1.000000
0.000000 0.053940 0.022316
0.000000 0.056062 0.023677
0.027634 0.055766 0.022023
0.159957 0.065517 0.023747
0.617738 0.094190 0.030045
1.000000 0.229886 0.126607
1.000000 0.701522 0.402628
1.000000 1.000000 1.000000
0.000000 0.190911 0.028296
0.000000 0.193019 0.028223
0.027933 0.193476 0.026097
0.146553 0.195453 0.019808
0.612057 0.234490 0.024919
1.000000 0.388373 0.120601
1.000000 0.836580 0.387932
1.000000 1.000000 1.000000
0.008457 0.710995 0.082741
0.031000 0.713885 0.084677
0.066601 0.714941 0.084453
0.176750 0.717370 0.079998
0.599101 0.740428 0.075078
1.000000 0.872496 0.118702
1.000000 1.000000 0.420164
1.000000 1.000000 1.000000
0.121755 1.000000 0.192734
0.141768 1.000000 0.193795
0.172977 1.000000 0.193090
0.277204 1.000000 0.190309
0.667053 1.000000 0.173769
1.000000 1.000000 0.175043
1.000000 1.000000 0.407861
1.000000 1.000000 1.000000
0.096065 1.000000 0.372859
0.118012 1.000000 0.373744
0.154834 1.000000 0.375050
0.270813 1.000000 0.372786
0.679658 1.000000 0.365543
1.000000 1.000000 0.361838
1.000000 1.000000 0.347410
1.000000 1.000000 1.000000
0.110300 1.000000 1.000000
0.129485 1.000000 1.000000
0.158454 1.000000 1.000000
0.255532 1.000000 1.000000
0.583449 1.000000 1.000000
1.000000 1.000000 0.999512
1.000000 1.000000 0.985084
1.000000 1.000000 0.936567
0.000000 0.000000 0.052459
0.001878 0.000000 0.052454
0.030786 0.000000 0.052645
0.148667 0.009446 0.061430
0.620360 0.033560 0.066315
1.000000 0.161380 0.164506
1.000000 0.649180 0.443128
1.000000 1.000000 1.000000
0.000000 0.015188 0.052421
0.001565 0.017308 0.053784
0.030498 0.018821 0.054148
0.151580 0.031908 0.060770
0.620079 0.057753 0.067005
1.000000 0.187927 0.165747
1.000000 0.673205 0.443684
1.000000 1.000000 1.000000
0.000000 0.053578 0.052028
0.000000 0.055698 0.053391
0.029904 0.059481 0.056321
0.156966 0.069488 0.061695
0.620468 0.097794 0.068299
1.000000 0.232865 0.166715
1.000000 0.711652 0.444561
1.000000 1.000000 1.000000
0.000000 0.191127 0.060117
0.000000 0.193236 0.060076
0.029988 0.196523 0.059603
0.147324 0.198685 0.054540
0.611060 0.242735 0.061321
1.000000 0.392975 0.163766
1.000000 0.843682 0.434416
1.000000 1.000000 1.000000
0.005800 0.711463 0.112768
0.027827 0.714135 0.114186
0.063517 0.718374 0.116610
0.176689 0.720804 0.113125
0.600567 0.743715 0.109413
1.000000 0.875674 0.154628
1.000000 1.000000 0.455130
1.000000 1.000000 1.000000
0.118735 1.000000 0.222602
0.139110 1.000000 0.223768
0.173601 1.000000 0.226167
0.278654 1.000000 0.222988
0.667205 1.000000 0.206894
1.000000 1.000000 0.207110
1.000000 1.000000 0.443091
1.000000 1.000000 1.000000
0.095771 1.000000 0.406681
0.117756 1.000000 0.407565
0.153097 1.000000 0.408932
0.271281 1.000000 0.408462
0.681509 1.000000 0.400512
1.000000 1.000000 0.397068
1.000000 1.000000 0.382640
1.000000 1.000000 1.000000
0.110866 1.000000 1.000000
0.130051 1.000000 1.000000
0.160717 1.000000 1.000000
0.257796 1.000000 1.000000
0.585715 1.000000 1.000000
1.000000 1.000000 1.000000
1.000000 1.000000 1.000000
1.000000 1.000000 0.966139
0.000000 0.005002 0.165847
0.009431 0.005797 0.166120
0.038374 0.007217 0.166736
0.144581 0.011954 0.165539
0.591906 0.075029 0.194771
1.000000 0.225519 0.292684
1.000000 0.671086 0.560266
1.000000 1.000000 1.000000
0.000000 0.027566 0.165587
0.009132 0.029831 0.166979
0.038087 0.031022 0.167496
0.143973 0.035940 0.167049
0.593256 0.096815 0.195298
1.000000 0.248321 0.293273
1.000000 0.694592 0.561182
1.000000 1.000000 1.000000
0.000000 0.064131 0.165154
0.006947 0.066396 0.166546
0.037573 0.070053 0.168800
0.142941 0.075214 0.169118
0.595837 0.133071 0.196320
1.000000 0.284966 0.294741
1.000000 0.732337 0.562972
1.000000 1.000000 1.000000
0.000000 0.191791 0.164379
0.002617 0.194342 0.165757
0.033449 0.198423 0.167979
0.143593 0.210871 0.175637
0.607290 0.264904 0.202227
1.000000 0.414137 0.297884
1.000000 0.863553 0.569729
1.000000 1.000000 1.000000
0.005582 0.712511 0.223805
0.024802 0.715172 0.224029
0.055158 0.719151 0.224203
0.168056 0.733666 0.232888
0.605242 0.755088 0.227131
1.000000 0.888291 0.281109
1.000000 1.000000 0.574596
1.000000 1.000000 1.000000
0.113915 1.000000 0.325320
0.134464 1.000000 0.326836
0.167042 1.000000 0.328544
0.281880 1.000000 0.335253
0.671670 1.000000 0.318131
1.000000 1.000000 0.320985
1.000000 1.000000 0.561159
1.000000 1.000000 1.000000
0.103567 1.000000 0.526937
0.124611 1.000000 0.528502
0.158120 1.000000 0.530053
0.269726 1.000000 0.528010
0.687520 1.000000 0.519094
1.000000 1.000000 0.515135
1.000000 1.000000 0.500707
1.000000 1.000000 1.000000
0.112764 1.000000 1.000000
0.131949 1.000000 1.000000
0.162614 1.000000 1.000000
0.265377 1.000000 1.000000
0.593295 1.000000 1.000000
1.000000 1.000000 1.000000
1.000000 1.000000 1.000000
1.000000 1.000000 1.000000
0.027337 0.048781 0.545875
0.045685 0.049648 0.545735
0.075266 0.051259 0.545570
0.175103 0.057166 0.546964
0.568462 0.103683 0.558009
1.000000 0.296359 0.675225
1.000000 0.687959 0.923950
1.000000 1.000000 1.000000
0.026552 0.070929 0.546276
0.045945 0.073075 0.547635
0.075284 0.074623 0.547563
0.175167 0.080184 0.547841
0.568923 0.126815 0.559638
1.000000 0.319466 0.676917
1.000000 0.712897 0.925969
1.000000 1.000000 1.000000
0.024878 0.106878 0.546493
0.044261 0.109066 0.547801
0.075272 0.112856 0.549692
0.175712 0.118066 0.550032
0.568547 0.163992 0.562306
1.000000 0.357205 0.679907
1.000000 0.752878 0.929513
1.000000 1.000000 1.000000
0.019619 0.231552 0.546830
0.038721 0.233880 0.548114
0.069296 0.238055 0.550557
0.176826 0.252777 0.559528
0.572099 0.296084 0.574113
1.000000 0.486323 0.690875
1.000000 0.889483 0.941540
1.000000 1.000000 1.000000
0.019396 0.721769 0.592680
0.038832 0.723916 0.593650
0.069769 0.727336 0.595350
0.175740 0.741224 0.604282
0.601748 0.799120 0.639763
1.000000 0.937861 0.729815
1.000000 1.000000 0.992430
1.000000 1.000000 1.000000
0.122978 1.000000 0.701891
0.143157 1.000000 0.702842
0.174653 1.000000 0.704681
0.284476 1.000000 0.712474
0.670233 1.000000 0.729168
1.000000 1.000000 0.719683
1.000000 1.000000 0.978377
1.000000 1.000000 1.000000
0.114835 1.000000 0.888881
0.135271 1.000000 0.890073
0.168186 1.000000 0.892234
0.280702 1.000000 0.899258
0.696476 1.000000 0.931562
1.000000 1.000000 0.932353
1.000000 1.000000 0.917925
1.000000 1.000000 1.000000
0.119173 1.000000 1.000000
0.138359 1.000000 1.000000
0.169024 1.000000 1.000000
0.271787 1.000000 1.000000
0.618905 1.000000 1.000000
1.000000 1.000000 1.000000
1.000000 1.000000 1.000000
1.000000 1.000000 1.000000
0.131910 0.173949 1.000000
0.150491 0.175203 1.000000
0.180041 0.176503 1.000000
0.280416 0.182883 1.000000
0.683415 0.232127 1.000000
1.000000 0.314933 1.000000
1.000000 0.697135 1.000000
1.000000 1.000000 1.000000
0.130717 0.195936 1.000000
0.150416 0.198880 1.000000
0.180036 0.200433 1.000000
0.280217 0.206952 1.000000
0.683819 0.255655 1.000000
1.000000 0.337941 1.000000
1.000000 0.722239 1.000000
1.000000 1.000000 1.000000
0.129587 0.233227 1.000000
0.149146 0.235878 1.000000
0.180491 0.239803 1.000000
0.279943 0.245721 1.000000
0.685553 0.294518 1.000000
1.000000 0.374754 1.000000
1.000000 0.762484 1.000000
1.000000 1.000000 1.000000
0.124926 0.361583 1.000000
0.144274 0.363406 1.000000
0.175428 0.368403 1.000000
0.281786 0.385123 1.000000
0.690217 0.428772 1.000000
1.000000 0.501760 1.000000
1.000000 0.897579 1.000000
1.000000 1.000000 1.000000
0.122999 0.845130 1.000000
0.142605 0.847113 1.000000
0.173529 0.850789 1.000000
0.294265 0.864239 1.000000
0.725036 0.916210 1.000000
1.000000 0.958507 1.000000
1.000000 1.000000 1.000000
1.000000 1.000000 1.000000
0.150074 1.000000 1.000000
0.170015 1.000000 1.000000
0.202800 1.000000 1.000000
0.312260 1.000000 1.000000
0.698895 1.000000 1.000000
1.000000 1.000000 1.000000
1.000000 1.000000 1.000000
1.000000 1.000000 1.000000
0.134398 1.000000 1.000000
0.155929 1.000000 1.000000
0.191121 1.000000 1.000000
0.306813 1.000000 1.000000
0.720003 1.000000 1.000000
1.000000 1.000000 1.000000
1.000000 1.000000 1.000000
1.000000 1.000000 1.000000
0.140758 1.000000 1.000000
0.159944 1.000000 1.000000
0.190609 1.000000 1.000000
0.293372 1.000000 1.000000
0.640490 1.000000 1.000000
1.000000 1.000000 1.000000
1.000000 1.000000 1.000000
1.000000 1.000000 1.000000
0.433334 0.523647 1.000000
0.458090 0.525504 1.000000
0.500129 0.528586 1.000000
0.626764 0.539341 1.000000
1.000000 0.590279 1.000000
1.000000 0.627247 1.000000
1.000000 0.720683 1.000000
1.000000 1.000000 1.000000
0.432229 0.549592 1.000000
0.458809 0.553725 1.000000
0.500938 0.556868 1.000000
0.628471 0.567781 1.000000
1.000000 0.615550 1.000000
1.000000 0.652350 1.000000
1.000000 0.745786 1.000000
1.000000 1.000000 1.000000
0.430458 0.591164 1.000000
0.457063 0.595316 1.000000
0.503361 0.602406 1.000000
0.631016 0.613415 1.000000
1.000000 0.656198 1.000000
1.000000 0.692596 1.000000
1.000000 0.786032 1.000000
1.000000 1.000000 1.000000
0.443233 0.735491 1.000000
0.466272 0.738686 1.000000
0.506804 0.743773 1.000000
0.642774 0.762304 1.000000
1.000000 0.795400 1.000000
1.000000 0.827690 1.000000
1.000000 0.921127 1.000000
1.000000 1.000000 1.000000
0.515265 1.000000 1.000000
0.538028 1.000000 1.000000
0.574681 1.000000 1.000000
0.687241 1.000000 1.000000
1.000000 1.000000 1.000000
1.000000 1.000000 1.000000
1.000000 1.000000 1.000000
1.000000 1.000000 1.000000
0.452664 1.000000 1.000000
0.474195 1.000000 1.000000
0.509387 1.000000 1.000000
0.625078 1.000000 1.000000
1.000000 1.000000 1.000000
1.000000 1.000000 1.000000
1.000000 1.000000 1.000000
1.000000 1.000000 1.000000
0.207048 1.000000 1.000000
0.228578 1.000000 1.000000
0.263770 1.000000 1.000000
0.379462 1.000000 1.000000
0.792652 1.000000 1.000000
1.000000 1.000000 1.000000
1.000000 1.000000 1.000000
1.000000 1.000000 1.000000
0.213408 1.000000 1.000000
0.232593 1.000000 1.000000
0.263258 1.000000 1.000000
0.366021 1.000000 1.000000
0.713139 1.000000 1.000000
1.000000 1.000000 1.000000
1.000000 1.000000 1.000000
1.000000 1.000000 1.000000
1.000000 1.000000 1.000000
1.000000 1.000000 1.000000
1.000000 1.000000 1.000000
1.000000 1.000000 1.000000
1.000000 1.000000 1.000000
1.000000 1.000000 1.000000
1.000000 1.000000 1.000000
1.000000 1.000000 1.000000
1.000000 1.000000 1.000000
1.000000 1.000000 1.000000
1.000000 1.000000 1.000000
1.000000 1.000000 1.000000
1.000000 1.000000 1.000000
1.000000 1.000000 1.000000
1.000000 1.000000 1.000000
1.000000 1.000000 1.000000
1.000000 1.000000 1.000000
1.000000 1.000000 1.000000
1.000000 1.000000 1.000000
1.000000 1.000000 1.000000
1.000000 1.000000 1.000000
1.000000 1.000000 1.000000
1.000000 1.000000 1.000000
1.000000 1.000000 1.000000
1.000000 1.000000 1.000000
1.000000 1.000000 1.000000
1.000000 1.000000 1.000000
1.000000 1.000000 1.000000
1.000000 1.000000 1.000000
1.000000 1.000000 1.000000
1.000000 1.000000 1.000000
1.000000 1.000000 1.000000
1.000000 1.000000 1.000000
1.000000 1.000000 1.000000
1.000000 1.000000 1.000000
1.000000 1.000000 1.000000
1.000000 1.000000 1.000000
1.000000 1.000000 1.000000
1.000000 1.000000 1.000000
1.000000 1.000000 1.000000
1.000000 1.000000 1.000000
1.000000 1.000000 1.000000
1.000000 1.000000 1.000000
1.000000 1.000000 1.000000
1.000000 1.000000 1.000000
1.000000 1.000000 1.000000
1.000000 1.000000 1.000000
1.000000 1.000000 1.000000
1.000000 1.000000 1.000000
1.000000 1.000000 1.000000
1.000000 1.000000 1.000000
1.000000 1.000000 1.000000
1.000000 1.000000 1.000000
1.000000 1.000000 1.000000
1.000000 1.000000 1.000000
1.000000 1.000000 1.000000
0.457697 1.000000 1.000000
0.476883 1.000000 1.000000
0.507548 1.000000 1.000000
0.610311 1.000000 1.000000
0.957429 1.000000 1.000000
1.000000 1.000000 1.000000
1.000000 1.000000 1.000000
1.000000 1.000000 1.000000
